!!!!SEGMENT: s-uu--vok-mus-i-hs-33-19_scacchi-marco--laudate-pueri.krn
!!!cenid: 16xx:1766
!!!COM: Scacchi, Marco
!!!COM-rismID: pe30013433
!!!CDT: ~1605-1662
!!!CNT: Italian
!!!OTL: Laudate pueri
!!!PDT: 1690
!!!AGN:
!!!YEC: Copyright 2022 Narodowy Instytut Fryderyka Chopina (https://polishscores.org)
!!!YEM: License CC-BY-4.0 (https://creativecommons.org/licenses/by/4.0)
!!!SMS-siglum: S-Uu
!!!SMS-shelfmark: Vok. mus. i hs. 33:19
!!!SMS-shelfwork: W
!!!SMS-variant:
!!!SMS-altvar:
!!!NIFC-rismSourceID: 190025588
!!!NIFC-rismChildID: 190025588
!!!NIFC-islandoraID: none
!!!URL-pdf-islandora:
!!!URL-scan: https://www2.musik.uu.se/duben/presentationSource1.php?Select_Dnr=1901 @EN{Scan at The Düben Collection Database Catalogue} @PL{Skany w The Düben Collection Database Catalogue}
!!!IIIF:
!!!ONB-nifc: UWAGA: partie dostępne po wybraniu”browse part”. Przewijanie stron za pomocą „next” i „previous” nad obrazem.
!!!AIN: 1 bass 2 soprn
!!!key: G:mix
**kern	**fba	**dynam	**kern	**text	**kern	**text	**dynam	**kern	**text	**dynam
*group2	*	*	*group1	*	*group1	*	*	*group1	*	*
*part4	*	*	*part3	*	*part2	*	*	*part1	*	*
*staff4	*	*	*staff3	*	*staff2	*	*	*staff1	*	*
*I"[Basso continuo]	*	*	*I"Basso	*	*I"Canto secondo	*	*	*I"Canto primo	*	*
*I'[bc]	*	*	*I'B	*	*I'S2	*	*	*I'S1	*	*
*	*	*	*Ibass	*	*Isoprn	*	*	*Isoprn	*	*
*ICstr&ICklav	*	*ICvox	*	*ICvox	*	*	*ICvox	*	*	*
*IGcont	*	*	*	*	*	*	*	*	*	*
*clefF4	*	*	*clefF4	*	*clefC1	*	*	*clefC1	*	*
*k[]	*	*	*k[]	*	*k[]	*	*	*k[]	*	*
*G:mix	*	*	*G:mix	*	*G:mix	*	*	*G:mix	*	*
*M3/1	*	*	*M3/1	*	*M3/1	*	*	*M3/1	*	*
*met(3)	*	*	*met(3)	*	*met(3)	*	*	*met(3)	*	*
=1-	=1-	=1-	=1-	=1-	=1-	=1-	=1-	=1-	=1-	=1-
*2\right	*	*	*2\right	*	*2\right	*	*	*2\right	*	*
!!LO:TX:t=P:problem:zostawiamy metrum 2/1,3/1 [konsultacja z E.Z.]
!!LO:TX:t=P:problem:all\right:global
!	!	!	!LO:N:vis=00	!	!	!	!	!	!	!
1G	.	.	00.r	.	2b\	Lau-	.	2dd\	Lau-	.
!	!	!	!	!	!	!	!	!	!	!LO:DY:b:t=Forte
.	.	.	.	.	2b\	-da-	.	2dd\	-da-	f
!	!	!	!	!	!	!	!LO:DY:b:t=Forte	!	!	!
2C/	.	.	.	.	2cc\	-te	f	2ee\	-te	.
!	!	!LO:DY:b:t=Forte.	!	!	!	!	!	!	!	!
1G	.	f	.	.	2.b\	pu-	.	2.dd\	Pu-	.
.	.	.	.	.	4a\	-e-	.	4cc\	-e-	.
!LO:TX:t=P:problem:kreska pseudotaktowa	!	!	!	!	!	!	!	!	!	!
2G\	.	.	.	.	2g/	-ri	.	2b\	-ri	.
=2-	=2-	=2-	=2-	=2-	=2-	=2-	=2-	=2-	=2-	=2-
!LO:N:vis=1	!	!	!	!	!LO:N:vis=1	!	!	!LO:N:vis=1	!	!
1.r	.	.	.	.	1.r	.	.	1.r	.	.
!	!	!LO:DY:b:t=Pian.	!	!	!	!	!	!	!	!
1G	.	p	.	.	2b\	Lau-	.	2dd\	Lau-	.
!	!	!	!	!	!	!	!LO:DY:b:t=P.	!	!	!LO:DY:b:t=Pian.
.	.	.	.	.	2b\	-da-	p	2dd\	-da-	p
2C/	.	.	.	.	2cc\	-te	.	2ee\	-te	.
=3-	=3-	=3-	=3-	=3-	=3-	=3-	=3-	=3-	=3-	=3-
!	!	!	!LO:N:vis=00	!	!	!	!	!	!	!
1G	.	.	00.r	.	2.b\	d(o)-	.	2.dd\	d(o)-	.
.	.	.	.	.	4a\	-(mi)-	.	4cc\	-(mi)-	.
2G\	.	.	.	.	4g/	-n(u)m	.	2b\	-n(u)m	.
.	.	.	.	.	4b\	.	.	.	.	.
!	!	!LO:DY:b:t=For.	!	!	!	!	!	!	!	!
1C	.	f	.	.	(4a\	.	.	(4cc\	Lau-	.
.	.	.	.	.	4g\)	.	.	4b\)	.	.
!	!	!	!	!	!	!	!LO:DY:b:t=F.	!	!	!
.	.	.	.	.	(4a\	Lau-	f	(4cc\	.	.
!	!	!	!	!	!	!	!	!	!	!LO:DY:b:t=F.
.	.	.	.	.	4g\)	-da-	.	4b\)	.	f
!LO:TX:t=P:problem:kreska pseudotaktowa	!	!	!	!	!	!	!	!	!	!
2D\	#	.	.	.	2f#X/	.	.	2a\	-da-	.
=4-	=4-	=4-	=4-	=4-	=4-	=4-	=4-	=4-	=4-	=4-
1GG	.	.	.	.	1g	-te	.	1g	-te	.
*	*	*	*	*	*	*ij	*	*	*ij	*
!	!	!LO:DY:b:t=Pian.	!	!	!	!	!	!	!	!
2GG/	.	p	.	.	2b\	Lau-	.	2dd\	Lau-	.
1C	.	.	.	.	(4a\	-da-	.	(4cc\	-da-	.
!	!	!	!	!	!	!	!	!	!	!LO:DY:b:t=P.
.	.	.	.	.	4g\)	.	.	4b\)	.	p
!	!	!	!	!	!	!	!LO:DY:a:t=P.	!	!	!
.	.	.	.	.	(4a\	.	p	(4cc\	.	.
.	.	.	.	.	4g\)	.	.	4b\)	.	.
!LO:TX:t=P:problem:kreska pseudotaktowa	!	!	!	!	!	!	!	!	!	!
2D\	#	.	.	.	2f#X/	.	.	2a\	.	.
*	*	*	*	*	*custos:g	*	*	*	*	*
!	!	!	!	!	!LO:LB:g=original	!	!	!	!	!
=5-	=5-	=5-	=5-	=5-	=5-	=5-	=5-	=5-	=5-	=5-
!	!	!	!LO:N:vis=00	!	!	!	!	!	!	!
1.GG	.	.	00.r	.	1g	-te	.	1g	-te	.
*	*	*	*	*	*	*Xij	*	*	*Xij	*
.	.	.	.	.	2r	.	.	2r	.	.
!	!	!	!	!	!LO:N:vis=1	!	!	!LO:N:vis=1	!	!
2GG/	.	.	.	.	1.r	.	.	1.r	.	.
!	!	!LO:DY:b:t=Forte.	!	!	!	!	!	!	!	!
2AA/	.	f	.	.	.	.	.	.	.	.
2BB/	.	.	.	.	.	.	.	.	.	.
*	*	*	*	*	*	*	*	*custos:ee	*	*
!	!	!	!	!	!	!	!	!LO:LB:g=original	!	!
=6-	=6-	=6-	=6-	=6-	=6-	=6-	=6-	=6-	=6-	=6-
!LO:SIC:v:o=2D\	!	!	!	!	!	!	!	!	!	!
2C\	6	.	.	.	2cc\	Lau-	.	2ee\	Lau-	.
.	5	.	.	.	.	.	.	.	.	.
!LO:TX:t=P:problem:kreska pseudotaktowa	!	!	!	!	!	!	!LO:DY:b:t=F.	!	!	!LO:DY:b:t=F.
1D	.	.	.	.	2b\	-da-	f	2dd\	-da-	f
.	.	.	.	.	2a\	-te	.	2cc\	-te	.
1E	.	.	.	.	2.g#X/	d(o)-	.	2.b\	d(o)-	.
.	.	.	.	.	4g#/	-(mi)-	.	4b\	-(mi)-	.
2AA/	.	.	.	.	4a\	-n(u)m	.	4a\	-n(u)m	.
.	.	.	.	.	4cc\	.	.	4ee\	Lau-	.
=7-	=7-	=7-	=7-	=7-	=7-	=7-	=7-	=7-	=7-	=7-
!	!	!	!LO:N:vis=00	!	!	!	!	!	!	!
1D	.	.	00.r	.	(4b\	lau-	.	(4dd\	-da-	.
.	.	.	.	.	4a\)	.	.	4cc\)	.	.
.	.	.	.	.	(4b\	-da-	.	(4dd\	.	.
.	.	.	.	.	4a\)	.	.	4cc\)	.	.
2E\	#	.	.	.	2g#X/	-te	.	2b\	.	.
*custos:AA	*	*	*	*	*	*	*	*	*	*
!LO:LB:g=original	!	!	!	!	!	!	!	!	!	!
1AA	.	.	.	.	1a	.	.	1a	-te	.
*	*	*	*	*	*	*ij	*	*	*ij	*
!	!	!LO:DY:b:t=P.	!	!	!	!	!	!	!	!
2AA/	.	p	.	.	2cc\	lau-	.	2ee\	Lau-	.
=8-	=8-	=8-	=8-	=8-	=8-	=8-	=8-	=8-	=8-	=8-
!	!	!	!	!	!	!	!LO:DY:b:t=P.	!	!	!LO:DY:b:t=P.
1D	.	.	.	.	(4cc\	-da-	p	(4dd\	-da-	p
.	.	.	.	.	4a\)	.	.	4cc\)	.	.
.	.	.	.	.	(4b\	.	.	(4dd\	.	.
.	.	.	.	.	4a\)	.	.	4cc\)	.	.
2E\	.	.	.	.	2g#X/	.	.	2b\	.	.
1AA	.	.	.	.	1a	-te	.	1a	-te	.
*	*	*	*	*	*	*Xij	*	*	*Xij	*
!LO:TX:t=P:problem:kreska pseudotaktowa	!	!LO:DY:b:t=F.	!	!	!	!	!	!	!	!
2A\	.	f	.	.	2a\	.	.	2cc\	.	.
=9-	=9-	=9-	=9-	=9-	=9-	=9-	=9-	=9-	=9-	=9-
!	!	!	!LO:N:vis=00	!	!	!	!	!	!	!LO:DY:b:t=F.
1G	.	.	00.r	.	(4b\	.	.	4dd\	Lau-	f
.	.	.	.	.	4a\)	.	.	4cc\	-da-	.
!	!	!	!	!	!	!	!LO:DY:b:t=F.	!	!	!
.	.	.	.	.	(4b\	Lau-	f	4dd\	.	.
.	.	.	.	.	4cc\)	.	.	4ee\	.	.
2G\	.	.	.	.	2b\	-da-	.	2dd\	-te	.
2C/	.	.	.	.	2cc\	-te	.	2ee\	no-	.
!LO:TX:t=P:problem:kreska pseudotaktowa	!	!	!	!	!	!	!	!	!	!
1F	6	.	.	.	2dd\	no-	.	2ff\	-men	.
!	!	!	!	!	!LO:SIC:v:o=2b\	!	!	!	!	!
.	5	.	.	.	2cc\	-men	.	2ee\	.	.
*	*	*	*	*	*custos:b	*	*	*	*	*
!	!	!	!	!	!LO:LB:g=original	!	!	!	!	!
=10-	=10-	=10-	=10-	=10-	=10-	=10-	=10-	=10-	=10-	=10-
1G	.	.	.	.	2.b\	Do-	.	2.dd\	do-	.
.	.	.	.	.	4b\	-mi-	.	4dd\	-mi-	.
2C/	.	.	.	.	2cc\	-ni	.	2cc\	-ni	.
*	*	*	*	*	*	*	*	*custos:ee	*	*
!	!	!	!	!	!	!	!	!LO:LB:g=original	!	!
2r	.	.	.	.	2r	.	.	2r	.	.
!LO:TX:t=P:problem:kreska pseudotaktowa	!	!LO:DY:b:t=P.	!	!	!	!	!	!	!	!
1F	6	p	.	.	2dd\	no-	.	2ff\	No-	.
!	!	!	!	!	!	!	!LO:DY:b:t=P.	!	!	!LO:DY:b:t=P.
.	5	.	.	.	2cc\	-men	p	2ee\	-men	p
=11-	=11-	=11-	=11-	=11-	=11-	=11-	=11-	=11-	=11-	=11-
!	!	!	!LO:N:via=00	!	!	!	!	!	!	!
1G	.	.	00.r	.	2.b\	d(o)-	.	2.dd\	d(o)-	.
.	.	.	.	.	4b\	-(mi)-	.	4dd\	-(mi)-	.
2C/	.	.	.	.	4cc\	-ni	.	4cc\	-ni	.
.	.	.	.	.	4cc\	Lau-	.	4ee\	.	.
!	!	!	!	!	!	!	!	!	!	!LO:DY:b:t=F.
1D	.	.	.	.	(4b\	-da-	.	(4dd\	Lau-	f
!	!	!	!	!	!	!	!LO:DY:b:t=F.	!	!	!
.	.	.	.	.	4a\)	.	f	4cc\)	.	.
.	.	.	.	.	(4b\	.	.	(4dd\	-da-	.
.	.	.	.	.	4a\)	.	.	4cc\)	.	.
!LO:TX:t=P:problem:kreska pseudotaktowa	!	!LO:DY:b:t=F.	!	!	!LO:TX:t=P:problem:# below	!	!	!	!	!
2E\	#	f	.	.	2g#X/	.	.	2b\	.	.
=12-	=12-	=12-	=12-	=12-	=12-	=12-	=12-	=12-	=12-	=12-
1A	.	.	.	.	1a	-te	.	1a	-te	.
*	*	*	*	*	*	*ij	*	*	*ij	*
2G\	.	.	.	.	2b\	Lau-	.	2dd\	Lau-	.
!	!	!	!	!	!	!	!	!	!	!LO:DY:b:t=P.
1C	.	.	.	.	(<4a\	-da-	.	(4cc\	-da-	p
.	.	.	.	.	4gny/)	.	.	4b\)	.	.
!	!	!	!	!	!	!	!LO:DY:b:t=P.	!	!	!
.	.	.	.	.	(4a\	.	p	(4cc\	.	.
.	.	.	.	.	4g\)	.	.	4b\)	.	.
!LO:TX:t=P:problem:kreska pseudotaktowa	!	!	!	!	!	!	!	!	!	!
2D\	#	.	.	.	2f#X/	.	.	2a\	.	.
=13-	=13-	=13-	=13-	=13-	=13-	=13-	=13-	=13-	=13-	=13-
!	!	!	!LO:N:vis=0	!	!	!	!	!	!	!
1G	.	.	0.r	.	1g	-te	.	1g	-te	.
*	*	*	*	*	*	*	*	*	*Xij	*
!	!	!LO:DY:b:t=P.	!	!	!	!	!	!	!	!
2G\	.	p	.	.	2b\	Lau-	.	2dd\	.	.
2C/	.	.	.	.	(4a\	-da-	.	(4cc\	Lau-	.
!	!	!	!	!	!	!	!	!	!	!LO:DY:b:t=P.
.	.	.	.	.	4g\)	.	.	4b\)	.	p
2C/	.	.	.	.	(4a\	.	.	(4cc\	-da-	.
.	.	.	.	.	4g\)	.	.	4b\)	.	.
2D\	#	.	.	.	2f#X/	.	.	2a\	.	.
=14-	=14-	=14-	=14-	=14-	=14-	=14-	=14-	=14-	=14-	=14-
!	!	!	!LO:N:vis=1	!	!	!	!	!	!	!
1.GG	.	.	1.r	.	1g	-te	.	1g	-te	.
.	.	.	.	.	2r	.	.	2r	.	.
*custos:G	*	*	*	*	*custos:b	*Xij	*	*	*	*
!LO:LB:g=original	!	!	!	!	!	!	!	!	!	!
!LO:TX:b:t=Sit Sit nomen.	!	!	!	!	!LO:LB:g=original	!	!	!	!	!
1.G	.	.	1.G	Sit	1b	Sit	.	1dd	Sit	.
.	.	.	.	.	2r	.	.	2r	.	.
=15-	=15-	=15-	=15-	=15-	=15-	=15-	=15-	=15-	=15-	=15-
2G\	.	.	2G\	Sit	2b\	Sit	.	2dd\	Sit	.
!	!	!	!	!	!	!	!	!	!	!LO:DY:b:t=F.
2A\	.	.	2G\	no-	2b\	no-	.	2dd\	no-	f
!LO:TX:t=P:problem:kreska pseudotaktowa	!	!	!	!	!	!	!	!	!	!
2E\	6	.	2E\	-men	2cc\	-men	.	2ee\	-men	.
*	*	*	*	*	*	*	*	*custos:cc	*	*
!	!	!	!	!	!	!	!	!LO:LB:g=original	!	!
2F\	.	.	2F\	d(o)-	2a\	d(o)-	.	2cc\	do-	.
4F\	.	.	4F\	-(mi)-	4a\	-(mi)-	.	4cc\	-mi-	.
4F\	.	.	4F\	-ni	4a\	-ni	.	4cc\	-ni	.
2F\	.	.	2F\	be-	2a\	be-	.	2cc\	be-	.
=16-	=16-	=16-	=16-	=16-	=16-	=16-	=16-	=16-	=16-	=16-
2D\	6	.	2D/	-ne-	2b\	-ne-	.	2dd\	-ne-	.
2E\	#	.	2E\	-di-	2g#X/	-di-	.	2b\	-di-	.
!LO:TX:t=P:problem:kreska pseudotaktowa	!	!	!	!	!	!	!	!	!	!
2E\	.	.	2E\	-ctum	2g#/	-ctum	.	2b\	-ctum	.
2A\	.	.	2rBB	.	2a\	be-	.	2cc\	be-	.
2G\	.	.	2r	.	2b\	-ne-	.	2dd\	-ne-	.
2C/	.	.	2E\	be-	2cc\	-di-	.	2ee\	-di-	.
=17-	=17-	=17-	=17-	=17-	=17-	=17-	=17-	=17-	=17-	=17-
2F\	.	.	2F\	-ne-	2cc\	-ctum	.	2dd\	-ctum	.
*	*	*	*	*	*	*ij	*	*	*ij	*
!LO:TX:t=P:problem:kreska pseudotaktowa	!	!	!	!	!	!	!	!	!	!
1G	3	.	1G	-di-	2b\	be-	.	2dd\	be-	.
.	4	.	.	.	2cc\	-ne-	.	2ee\	-ne-	.
1F	6	.	1.F	-ctum	1dd	-di-	.	2ff\	-di-	.
.	.	.	.	.	.	.	.	1ee	-ctum	.
*	*	*	*	*	*	*	*	*	*Xij	*
2F\	5	.	.	.	2cc\	-ctum	.	.	.	.
*	*	*	*	*	*	*Xij	*	*	*	*
=18-	=18-	=18-	=18-	=18-	=18-	=18-	=18-	=18-	=18-	=18-
1G	.	.	1G	No-	1b	No-	.	1dd	No-	.
2G\	.	.	2G\	-men	2b\	-men	.	2dd\	-men	.
*	*	*	*custos:C	*	*	*	*	*	*	*
!	!	!	!LO:LB:g=original	!	!	!	!	!	!	!
2r	.	.	2r	.	2r	.	.	2r	.	.
2C/	.	.	2C/	no-	2cc\	no-	.	(4ee\	No-	.
.	.	.	.	.	.	.	.	4dd\)	.	.
!LO:TX:t=P:problem:kreska pseudotaktowa	!	!	!	!	!	!	!	!	!	!
2C/	.	.	2C/	-men	2cc\	-men	.	(4ee\	-men	.
.	.	.	.	.	.	.	.	4cc\)	.	.
=19-	=19-	=19-	=19-	=19-	=19-	=19-	=19-	=19-	=19-	=19-
2G\	.	.	2G\	d(o)-	2b\	d(o)-	.	2dd\	d(o)-	.
4G\	.	.	4G\	-(mi)-	4b\	-(mi)-	.	4dd\	-(mi)-	.
4E\	6	.	4E\	-ni	4cc\	-ni	.	4ee\	-ni	.
2F\	.	.	2F\	be-	2a\	be-	.	2cc\	be-	.
*	*	*	*	*	*custos:a	*	*	*	*	*
!	!	!	!	!	!LO:LB:g=original	!	!	!	!	!
2D\	.	.	2D\	-ne-	2a\	-ne-	.	2b\	-ne-	.
1E	4	.	1E	-di-	(<2a\	-di-	.	1b	-di-	.
.	3 #	.	.	.	2g#X/)	.	.	.	.	.
*	*	*	*	*	*	*	*	*custos:a	*	*
!	!	!	!	!	!	!	!	!LO:LB:g=original	!	!
=20||-	=20||-	=20||-	=20||-	=20||-	=20||-	=20||-	=20||-	=20||-	=20||-	=20||-
*M2/1	*	*	*M2/1	*	*M2/1	*	*	*M2/1	*	*
*met(C)	*	*	*met(C)	*	*met(C)	*	*	*met(C)	*	*
1AA	.	.	1AA	-ctum	1a	-ctum	.	1a	-ctum	.
2FF/	.	.	2r	.	2r	.	.	2r	.	.
2FF/	.	.	4F\	Ex	16dd\	Ex	.	16ff\KL	ex	.
.	.	.	.	.	8.cc\	.	.	8.ee\J	.	.
.	.	.	4F\	hoc	16dd\	hoc	.	16ff\KL	hoc	.
.	.	.	.	.	8.cc\	.	.	8.ee\J	.	.
=21-	=21-	=21-	=21-	=21-	=21-	=21-	=21-	=21-	=21-	=21-
1GG	.	.	1G	nunc	1b	nunc	.	1dd	nunc	.
*custos:C	*	*	*	*	*	*	*	*	*	*
!LO:LB:g=original	!	!	!	!	!	!	!	!	!	!
=22||-	=22||-	=22||-	=22||-	=22||-	=22||-	=22||-	=22||-	=22||-	=22||-	=22||-
*M3/1	*	*	*M3/1	*	*M3/1	*	*	*M3/1	*	*
*met(3)	*	*	*met(3)	*	*met(3)	*	*	*met(3)	*	*
!	!	!	!	!	!	!	!	!LO:N:vis=1	!	!
2C/	.	.	2r	.	2ee\	et	.	1.r	.	.
2E\	6	.	2r	.	1cc	us-	.	.	.	.
2F\	.	.	2A\	us-	.	.	.	.	.	.
2D/	.	.	2F\	-que	2dd\	-q(ue)	.	2ff\	et	.
*	*	*	*	*	*	*ij	*	*	*	*
!LO:TX:t=P:problem:kreska pseudotaktowa	!	!	!	!	!	!	!	!	!	!
1G	.	.	4G\	.	2dd\	et	.	1dd	us-	.
.	.	.	4A\	.	.	.	.	.	.	.
.	.	.	4G\	.	2b\	us-	.	.	.	.
.	.	.	4F\	.	.	.	.	.	.	.
=23-	=23-	=23-	=23-	=23-	=23-	=23-	=23-	=23-	=23-	=23-
2C/	.	.	2E\	.	4cc\	-q(ue)	.	4ee\	-q(ue)	.
*	*	*	*	*	*	*Xij	*	*	*	*
.	.	.	.	.	4dd\	.	.	4ff\	.	.
2E\	.	.	2E\	us-	4cc\	.	.	4ee\	.	.
.	.	.	.	.	4b\	.	.	4dd\	.	.
!LO:SIC:v:o=2F\	!	!	!	!	!	!	!	!	!	!
2F#\	.	.	2F#X\	-q(ue)	2a\	.	.	2cc\	.	.
*	*	*	*custos:G	*	*	*	*	*	*	*
!	!	!	!LO:LB:g=original	!	!	!	!	!	!	!
2G\	.	.	2G\	in	2gny/	in	.	2b\	in	.
2C/	.	.	2C/	sae-	2g/	sae-	.	2a\	sae-	.
!LO:TX:t=P:problem:kreska pseudotaktowa	!	!	!	!	!	!	!	!	!	!
2D\	#	.	2D/	-cu-	2f#X/	-cu-	.	2a\	-cu-	.
=24||-	=24||-	=24||-	=24||-	=24||-	=24||-	=24||-	=24||-	=24||-	=24||-	=24||-
*M2/1	*	*	*M2/1	*	*M2/1	*	*	*M2/1	*	*
*met(C)	*	*	*met(C)	*	*met(C)	*	*	*met(C)	*	*
!LO:TX:b:t=A Solis ortu Solo.	!	!	!	!	!	!	!	!	!	!
2GG/	.	.	1GG	-lum	1g	-lum	.	1g	-lum	.
4G\	.	.	.	.	.	.	.	.	.	.
4A\	.	.	.	.	.	.	.	.	.	.
!LO:TX:t=P:problem:kreska pseudotaktowa	!	!	!	!	!	!	!	!	!	!
!LO:N:acc=#	!	!	!	!	!	!	!	!	!	!
1Bn	.	.	00r	.	00r	.	.	2r	.	.
.	.	.	.	.	.	.	.	1dd\	A	.
=25-	=25-	=25-	=25-	=25-	=25-	=25-	=25-	=25-	=25-	=25-
2F#X\	-r6	.	.	.	.	.	.	.	.	.
2F#X\	3	.	.	.	.	.	.	4.a\	so-	.
!	!	!	!	!	!	!	!	!LO:TX:b:t=Solo.	!	!
.	2	.	.	.	.	.	.	8g/	-lis	.
4G\	.	.	.	.	.	.	.	2b\	or-	.
4F#\	9	.	.	.	.	.	.	.	.	.
4E\	3	.	.	.	.	.	.	2b\	-tu	.
!LO:TX:t=P:problem:kreska pseudotaktowa	!	!	!	!	!	!	!	!	!	!
4D\	4	.	.	.	.	.	.	.	.	.
*	*	*	*	*	*	*	*	*custos:ee	*	*
!	!	!	!	!	!	!	!	!LO:LB:g=original	!	!
=26-	=26-	=26-	=26-	=26-	=26-	=26-	=26-	=26-	=26-	=26-
2C/	.	.	.	.	.	.	.	2ee\	us-	.
2C/	6	.	.	.	.	.	.	2.a\	-q(ue)	.
2D\	.	.	00r	.	00r	.	.	.	.	.
.	.	.	.	.	.	.	.	8dd\	ad	.
.	.	.	.	.	.	.	.	8cc\	o-	.
!LO:TX:t=P:problem:kreska pseudotaktowa	!	!	!	!	!	!	!	!	!	!
2E\	.	.	.	.	.	.	.	2b\	-ca-	.
=27-	=27-	=27-	=27-	=27-	=27-	=27-	=27-	=27-	=27-	=27-
4A\	.	.	.	.	.	.	.	4a\	-sum	.
4E\	.	.	.	.	.	.	.	8r	.	.
.	.	.	.	.	.	.	.	8cc\	lau-	.
4Fny\	.	.	.	.	.	.	.	16dd\LL	-da-	.
.	.	.	.	.	.	.	.	16cc\	.	.
.	.	.	.	.	.	.	.	16b\	.	.
.	.	.	.	.	.	.	.	16a\JJ	.	.
4G\	.	.	.	.	.	.	.	16b\LL	-bi-	.
.	.	.	.	.	.	.	.	16g\	.	.
.	.	.	.	.	.	.	.	16a\	.	.
.	.	.	.	.	.	.	.	16b\JJ	.	.
4C/	.	.	.	.	.	.	.	4cc\	-le	.
4BB/	.	.	.	.	.	.	.	8r	.	.
*	*	*	*	*	*	*	*	*	*ij	*
.	.	.	.	.	.	.	.	8g/	lau-	.
4C/	.	.	.	.	.	.	.	16a\LL	-da-	.
.	.	.	.	.	.	.	.	16g\	.	.
!	!	!	!	!	!	!	!	!LO:SIC:v:o=16f\	!	!
.	.	.	.	.	.	.	.	16f#\	.	.
.	.	.	.	.	.	.	.	16e\JJ	.	.
4D\	.	.	.	.	.	.	.	16f#X/LL	-bi-	.
.	.	.	.	.	.	.	.	16d/	.	.
.	.	.	.	.	.	.	.	16e/	.	.
.	.	.	.	.	.	.	.	16f#/JJ	.	.
=28-	=28-	=28-	=28-	=28-	=28-	=28-	=28-	=28-	=28-	=28-
4G\	.	.	.	.	.	.	.	4g/	-le	.
4F\	.	.	.	.	.	.	.	8r	.	.
.	.	.	.	.	.	.	.	8dd\	lau-	.
4G\	.	.	.	.	.	.	.	16ee\LL	-da-	.
.	.	.	.	.	.	.	.	16dd\	.	.
.	.	.	.	.	.	.	.	16cc\	.	.
.	.	.	.	.	.	.	.	16b\JJ	.	.
4A\	.	.	.	.	.	.	.	16cc\LL	-bi-	.
.	.	.	.	.	.	.	.	16a\	.	.
.	.	.	.	.	.	.	.	16b\	.	.
.	.	.	.	.	.	.	.	16cc\JJ	.	.
*custos:D	*	*	*	*	*	*	*	*	*	*
!LO:LB:g=original	!	!	!	!	!	!	!	!	!	!
!LO:TX:t=P:problem:mixed beam	!	!	!	!	!	!	!	!	!	!
8D/L	.	.	0r	.	0r	.	.	[1dd	-le	.
*	*	*	*	*	*	*	*	*	*Xij	*
8C/	.	.	.	.	.	.	.	.	.	.
8BB/	.	.	.	.	.	.	.	.	.	.
8AA/	.	.	.	.	.	.	.	.	.	.
8GG/	.	.	.	.	.	.	.	.	.	.
8G\	.	.	.	.	.	.	.	.	.	.
8F\	.	.	.	.	.	.	.	.	.	.
8E\J	.	.	.	.	.	.	.	.	.	.
=29-	=29-	=29-	=29-	=29-	=29-	=29-	=29-	=29-	=29-	=29-
4D/	.	.	.	.	.	.	.	4dd\]	.	.
*	*	*	*	*	*	*	*	*custos:a	*	*
!	!	!	!	!	!	!	!	!LO:LB:g=original	!	!
4C/	.	.	.	.	.	.	.	8a\	no-	.
.	.	.	.	.	.	.	.	8a\	-men	.
2D/	.	.	.	.	.	.	.	4.a\	do-	.
.	.	.	.	.	.	.	.	8a\	-mi-	.
*	*	*	*	*	*custos:b	*	*	*	*	*
!	!	!	!	!	!LO:LB:g=original	!	!	!	!	!
=30||-	=30||-	=30||-	=30||-	=30||-	=30||-	=30||-	=30||-	=30||-	=30||-	=30||-
*M3/1	*	*	*M3/1	*	*M3/1	*	*	*M3/1	*	*
*met(3)	*	*	*met(3)	*	*met(3)	*	*	*met(3)	*	*
!	!	!LO:DY:b:t=For.	!LO:N:vis=00	!	!	!	!	!	!	!
1GG	.	f	00.r	.	2r	.	.	1g	-ni	.
.	.	.	.	.	2r	.	.	.	.	.
2GG/	.	.	.	.	2b\	Lau-	.	2dd\	.	.
1C	.	.	.	.	(4a\	-da-	.	(4cc\	Lau-	.
!	!	!	!	!	!	!	!LO:DY:b:t=F.	!	!	!LO:DY:b:t=For.
.	.	.	.	.	4g\)	.	f	4b\)	-da-	f
.	.	.	.	.	(4a\	.	.	(4cc\	.	.
.	.	.	.	.	4g\)	.	.	4b\)	.	.
!LO:TX:t=P:problem:kreska pseudotaktowa	!	!	!	!	!	!	!	!	!	!
2D\	#	.	.	.	2f#X/	.	.	2a\	.	.
=31-	=31-	=31-	=31-	=31-	=31-	=31-	=31-	=31-	=31-	=31-
1GG	.	.	.	.	1g	-te	.	1g	-te	.
*	*	*	*	*	*	*ij	*	*	*ij	*
!	!	!LO:DY:b:t=P.	!	!	!	!	!	!	!	!
2GG/	.	p	.	.	2b\	Lau-	.	2dd\	Lau-	.
1C	.	.	.	.	(4a\	-da-	.	(4cc\	-da-	.
!	!	!	!	!	!	!	!LO:DY:b:rj:t=P.	!	!	!LO:DY:b:t=P.
.	.	.	.	.	4g\)	.	p	4b\)	.	p
.	.	.	.	.	(4a\	.	.	(4cc\	.	.
.	.	.	.	.	4g\)	.	.	4b\)	.	.
!LO:TX:t=P:problem:kreska pseudotaktowa	!	!	!	!	!	!	!	!	!	!
2D/	.	.	.	.	2f#X/	.	.	2a\	.	.
=32-	=32-	=32-	=32-	=32-	=32-	=32-	=32-	=32-	=32-	=32-
!	!	!	!LO:N:vis=00	!	!	!	!	!	!	!
1GG	.	.	00.r	.	1g	-te	.	1g	-te	.
*	*	*	*	*	*	*Xij	*	*	*Xij	*
!LO:TX:b:t=Excelſus.	!	!	!	!	!	!	!	!	!	!
2G\	.	.	.	.	2g/	Ex-	.	2r	.	.
!LO:TX:t=P:problem:kreska pseudotaktowa	!	!	!	!	!	!	!LO:DY:b:t=F.	!LO:N:vis=0	!	!
1.D	.	.	.	.	2.a\	-cel-	f	0.r	.	.
.	.	.	.	.	4g/	.	.	.	.	.
.	.	.	.	.	2a\	-sus	.	.	.	.
=33-	=33-	=33-	=33-	=33-	=33-	=33-	=33-	=33-	=33-	=33-
2E\	6	.	.	.	2cc\	su-	.	.	.	.
2F\	.	.	.	.	2cc\	-p(er)	.	.	.	.
2G\	.	.	.	.	2b\	om-	.	.	.	.
2C/	.	.	.	.	2cc\	-nes	.	1.r	.	.
2D/	.	.	.	.	2a\	gen-	.	.	.	.
!LO:TX:t=P:problem:kreska pseudotaktowa	!	!	!	!	!LO:TX:t=P:problem:# below	!	!	!	!	!
2E\	#	.	.	.	2g#X/	-tes	.	.	.	.
=34-	=34-	=34-	=34-	=34-	=34-	=34-	=34-	=34-	=34-	=34-
!	!	!	!LO:N:vis=0	!	!	!	!	!	!	!
1.AA	.	.	0.r	.	2.a\	d(o)-	.	2r	.	.
.	.	.	.	.	.	.	.	2r	.	.
.	.	.	.	.	4a\	-(mi)-	.	.	.	.
.	.	.	.	.	4a\	-n(u)s	.	2ee\	Lau-	.
.	.	.	.	.	4cc\	Lau-	.	.	.	.
*	*	*	*	*	*custos:b	*	*	*	*	*
!	!	!	!	!	!LO:LB:g=original	!	!	!	!	!
1D	.	.	.	.	4b\	.	.	4dd\	-da-	.
!	!	!	!	!	!	!	!	!	!	!LO:DY:b:t=F.
.	.	.	.	.	4a\	-da-	.	4cc\	.	f
.	.	.	.	.	4b\	.	.	4dd\	.	.
.	.	.	.	.	4a\	.	.	4cc\	.	.
!	!	!	!	!	!LO:TX:t=P:problem:# below	!	!	!	!	!
2E\	#	.	.	.	2g#X/	.	.	2b\	.	.
=35-	=35-	=35-	=35-	=35-	=35-	=35-	=35-	=35-	=35-	=35-
1AA	.	.	2r	.	1a	-te	.	1a	-te	.
.	.	.	2r	.	.	.	.	.	.	.
2D/	.	.	2A\	Lau-	2r	.	.	2r	.	.
*	*	*	*	*	*	*	*	*custos:b	*	*
!	!	!	!	!	!LO:N:vis=0	!	!	!LO:LB:g=original	!	!
1GG	.	.	4G\	-da-	0.r	.	.	2b\	et	.
.	.	.	4A\	.	.	.	.	.	.	.
.	.	.	4G\	.	.	.	.	2.dd\	su-	.
.	.	.	4Fny\	.	.	.	.	.	.	.
2AA/	.	.	2E\	.	.	.	.	.	.	.
!	!	!	!	!	!	!	!	!LO:SIC:v:o=4cc\	!	!
.	.	.	.	.	.	.	.	4cc#\	-per	.
*custos:D	*	*	*	*	*	*	*	*	*	*
!LO:LB:g=original	!	!	!	!	!	!	!	!	!	!
=36-	=36-	=36-	=36-	=36-	=36-	=36-	=36-	=36-	=36-	=36-
1D	4	.	1.D	-te	.	.	.	2dd\	coe-	.
.	3	.	.	.	.	.	.	2dd\	-los	.
2BB/	.	.	.	.	.	.	.	2dd\	Lau-	.
!	!	!	!	!	!LO:N:vis=1	!	!	!	!	!
1C	.	.	2E\	et	1.r	.	.	(4cc\	-da-	.
.	.	.	.	.	.	.	.	4b\)	.	.
.	.	.	2.G\	su-	.	.	.	(4cc\	.	.
.	.	.	.	.	.	.	.	4b\)	.	.
!LO:TX:t=P:problem:kreska pseudotaktowa	!	!	!	!	!	!	!	!	!	!
2D\	4	.	.	.	.	.	.	2a\	.	.
!	!	!	!LO:TX:t=P:problem:# above	!	!	!	!	!	!	!
.	3 #	.	4F#X\	-per	.	.	.	.	.	.
=37-	=37-	=37-	=37-	=37-	=37-	=37-	=37-	=37-	=37-	=37-
1GG	.	.	1G	coe-	2r	.	.	1g	-te	.
.	.	.	.	.	2r	.	.	.	.	.
*	*	*	*	*	*	*	*	*	*ij	*
!	!	!LO:DY:b:t=F.	!	!	!	!	!	!	!	!
2C/	.	f	2C/	-los	2cc\	Lau-	.	2ee\	Lau-	.
1D	.	.	2.D/	Glo-	(4b\	-da-	.	(4dd\	-da-	.
!	!	!	!	!	!	!	!LO:DY:b:t=F.	!	!	!LO:DY:b:t=P.
.	.	.	.	.	4a\)	.	f	4cc\)	.	p
.	.	.	.	.	(4b\	.	.	(4dd\	.	.
!	!	!	!	!	!	!	!LO:DY:b:t=P.	!	!	!
.	.	.	4D/	-ri-	4a\)	.	p	4cc\)	.	.
!LO:TX:t=P:problem:kreska pseudotaktowa	!	!	!	!	!LO:TX:t=P:problem:# below	!	!	!	!	!
2E\	#	.	2E\	-a	2g#X/	.	.	2b\	.	.
=38-	=38-	=38-	=38-	=38-	=38-	=38-	=38-	=38-	=38-	=38-
1.AA	.	.	1AA	e-	1a	-te	.	1a	-te	.
!	!	!	!	!	!LO:TX:a:t=P:problem:fragment zapisany repetycją	!	!	!	!	!
.	.	.	2AA/	-ius	2cc\yy	.	.	2ee\	Lau-	.
*	*	*	*custos:G	*	*	*	*	*	*	*
!	!	!	!LO:LB:g=original	!	!	!	!	!	!	!
!	!	!	!LO:N:vis=00	!	!	!	!	!	!	!
1D	.	.	00.r	.	(4b\yy	Lau-	.	(4dd\	-da-	.
!	!	!	!	!	!	!	!LO:DY:b:t=F.	!	!	!
.	.	.	.	.	4a\)yy	-da-	fy	4cc\)	.	.
.	.	.	.	.	(4b\yy	.	.	(4dd\	.	.
!	!	!	!	!	!	!	!LO:DY:b:t=P.	!	!	!LO:DY:b:t=F.
.	.	.	.	.	4a\)yy	.	py	4cc\)	.	f
!	!	!LO:DY:b:t=P.	!	!	!	!	!	!	!	!
2E\	#	p	.	.	2g#X/yy	.	.	2b\	.	.
=39-	=39-	=39-	=39-	=39-	=39-	=39-	=39-	=39-	=39-	=39-
!LO:TX:t=P:problem:kreska pseudotaktowa	!	!	!	!	!	!	!	!	!	!
1.AA	.	.	.	.	1ayy	-te	.	1a	-te	.
*	*	*	*	*	*	*	*	*	*Xij	*
.	.	.	.	.	2r	.	.	2r	.	.
!	!	!	!	!	!LO:N:vis=0	!	!	!LO:N:vis=1	!	!
2E\	.	.	.	.	0.r	.	.	1.r	.	.
2F\	.	.	.	.	.	.	.	.	.	.
2G\	.	.	.	.	.	.	.	.	.	.
*	*	*	*	*	*	*	*	*custos:e	*	*
!	!	!	!	!	!	!	!	!LO:PB:g=original	!	!
=40-	=40-	=40-	=40-	=40-	=40-	=40-	=40-	=40-	=40-	=40-
!LO:TX:b:t=Quis ſicut.	!	!	!	!	!	!	!	!	!	!
1A	.	.	.	.	.	.	.	2e/	Quis	.
.	.	.	.	.	.	.	.	(4fny/	si-	.
.	.	.	.	.	.	.	.	4e/)	.	.
2G\	.	.	.	.	.	.	.	(4f/	-cut	.
.	.	.	.	.	.	.	.	4g/)	.	.
!	!	!	!LO:N:vis=00	!	!	!	!	!	!	!
1F	.	.	00.r	.	2a\	Quis	.	2.a\	d(o)-	.
!	!	!	!	!	!LO:SIC:v:o=(4b\	!	!	!	!	!
.	.	.	.	.	(4b-\	si-	.	.	.	.
.	.	.	.	.	4a\)	.	.	4a\	-(mi)-	.
!LO:TX:t=P:problem:kreska pseudotaktowa	!	!	!	!	!	!	!	!	!	!
2E\	.	.	.	.	(4b\	-cut	.	2g/	-n(u)s	.
.	.	.	.	.	4cc\)	.	.	.	.	.
=41-	=41-	=41-	=41-	=41-	=41-	=41-	=41-	=41-	=41-	=41-
2D/	.	.	.	.	2.dd\	d(o)-	.	2f/	De-	.
2GG/	6	.	.	.	.	.	.	1e	-us	.
.	.	.	.	.	4dd\	-(mi)-	.	.	.	.
2AA/	.	.	.	.	2cc\	-n(u)s	.	.	.	.
2BB/	6	.	.	.	4b\	de-	.	(<1g	no-	.
.	.	.	.	.	4b\	-us	.	.	.	.
2C/	.	.	.	.	1a	nos-	.	.	.	.
!LO:TX:t=P:problem:kreska pseudotaktowa	!	!	!	!	!	!	!	!	!	!
2D\	#	.	.	.	.	.	.	2f#X/)	.	.
=42-	=42-	=42-	=42-	=42-	=42-	=42-	=42-	=42-	=42-	=42-
1GG	.	.	.	.	1gny	-ter	.	2g/	-ster	.
.	.	.	.	.	.	.	.	2dd\	qui	.
2C/	.	.	.	.	2r	.	.	2ee\	in	.
*	*	*	*	*	*custos:dd	*	*	*	*	*
!	!	!	!LO:N:vis=00	!	!LO:LB:g=original	!	!	!	!	!
1GG	.	.	00.r	.	2r	.	.	(4dd\	.	.
.	.	.	.	.	.	.	.	4cc\)	.	.
.	.	.	.	.	2dd\	qui	.	(4dd\	al-	.
.	.	.	.	.	.	.	.	4b\)	.	.
2C/	.	.	.	.	2ee\	in	.	2cc\	-tis	.
=43-	=43-	=43-	=43-	=43-	=43-	=43-	=43-	=43-	=43-	=43-
1GG	.	.	.	.	(4dd\	al-	.	1b	.	.
.	.	.	.	.	4cc\)	.	.	.	.	.
.	.	.	.	.	(4dd\	.	.	.	.	.
.	.	.	.	.	4b\)	.	.	.	.	.
2C/	.	.	.	.	2cc\	.	.	2ee\	in	.
*custos:GG	*	*	*	*	*	*	*	*	*	*
!LO:LB:g=original	!	!	!	!	!	!	!	!	!	!
1GG	.	.	.	.	1b	-tis	.	(4dd\	.	.
.	.	.	.	.	.	.	.	4cc\)	.	.
.	.	.	.	.	.	.	.	(4dd\	al-	.
.	.	.	.	.	.	.	.	4b\)	.	.
2C/	6	.	.	.	2a\	in	.	2cc\	.	.
=44-	=44-	=44-	=44-	=44-	=44-	=44-	=44-	=44-	=44-	=44-
2D\	6	.	.	.	1a	al-	.	1.b	-tis	.
!LO:TX:t=P:problem:kreska pseudotaktowa	!	!	!	!	!	!	!	!	!	!
1E	4	.	.	.	.	.	.	.	.	.
!	!	!	!	!	!LO:TX:t=P:problem:# below	!	!	!	!	!
.	3 #	.	.	.	2g#X/	-tis	.	.	.	.
!	!	!	!LO:N:vis=00	!	!	!	!	!	!	!
1AA	.	.	00.r	.	2.a\	ha-	.	2.a\	ha-	.
.	.	.	.	.	4a\	-bi-	.	4a\	-bi-	.
2FF/	.	.	.	.	2a\	-tat	.	2a\	-tat	.
*	*	*	*	*	*	*	*	*custos:b	*	*
!	!	!	!	!	!	!	!	!LO:LB:g=original	!	!
=45-	=45-	=45-	=45-	=45-	=45-	=45-	=45-	=45-	=45-	=45-
!	!	!	!	!	!	!	!	!LO:N:vis=1	!	!
1FF	.	.	.	.	2r	.	.	1.r	.	.
.	.	.	.	.	2a\	et	.	.	.	.
!LO:TX:t=P:problem:kreska pseudotaktowa	!	!	!	!	!	!	!	!	!	!
2FF/	.	.	.	.	2a\	hu-	.	.	.	.
1GG	-	.	.	.	1a	-mi-	.	2r	.	.
.	.	.	.	.	.	.	.	2b-X\	et	.
2GG/	.	.	.	.	2gny/	-li-	.	2b-X\	hu-	.
=46-	=46-	=46-	=46-	=46-	=46-	=46-	=46-	=46-	=46-	=46-
1GG	.	.	.	.	1.g	-a	.	1b-X	-mi-	.
!LO:TX:t=P:problem:kreska pseudotaktowa	!	!	!	!	!	!	!	!	!	!
2GG/	9	.	.	.	.	.	.	2a\	-li-	.
!	!	!	!LO:N:vis=00	!	!	!	!	!	!	!
1AA	7	.	00.r	.	(<1g	re-	.	1.a	-a	.
2AA/	6	.	.	.	2fny/)	.	.	.	.	.
=47-	=47-	=47-	=47-	=47-	=47-	=47-	=47-	=47-	=47-	=47-
2C/	6 5	.	.	.	(1f	-spi-	.	1g	re-	.
1C	5 4	.	.	.	.	.	.	.	.	.
.	X 3	.	.	.	2e/)	.	.	2g/	-spi-	.
1F	.	.	.	.	1f	-cit	.	1fny	-cit	.
!LO:TX:t=P:problem:kreska pseudotaktowa	!	!	!	!	!	!	!	!	!	!
2E\	6	.	.	.	2r	.	.	2cc\	in	.
*	*	*	*	*	*custos:cc	*	*	*	*	*
!	!	!	!	!	!LO:PB:g=original	!	!	!	!	!
=48-	=48-	=48-	=48-	=48-	=48-	=48-	=48-	=48-	=48-	=48-
1D	.	.	.	.	2r	.	.	2.ee\	coe-	.
.	.	.	.	.	2r	.	.	.	.	.
.	.	.	.	.	.	.	.	4ee\	-lo	.
2C/	.	.	.	.	2cc\	in	.	4dd\	.	.
.	.	.	.	.	.	.	.	4ee\	.	.
!	!	!	!LO:N:vis=00	!	!	!	!	!	!	!
1BB-X	.	.	00.r	.	2.dd\	coe-	.	2ff\	.	.
.	.	.	.	.	.	.	.	2f/	et	.
.	.	.	.	.	4ee\	.	.	.	.	.
!LO:TX:t=P:problem:kreska pseudotaktowa	!	!	!	!	!	!	!	!	!	!
2C/	.	.	.	.	4dd\	.	.	2e/	in	.
.	.	.	.	.	4ee\	.	.	.	.	.
=49-	=49-	=49-	=49-	=49-	=49-	=49-	=49-	=49-	=49-	=49-
2D/	.	.	.	.	2ff\	-lo	.	[1.d	ter-	.
2BBny/	.	.	.	.	2f/	et	.	.	.	.
2GG/	6	.	.	.	2e/	in	.	.	.	.
1AA	5 4	.	.	.	1.e	ter-	.	(1d]	.	.
!LO:TX:t=P:problem:kreska pseudotaktowa	!	!	!	!	!	!	!	!LO:SIC:v:o=2c/)	!	!
2AA/	X 3 #	.	.	.	.	.	.	2c#/)	.	.
=50-	=50-	=50-	=50-	=50-	=50-	=50-	=50-	=50-	=50-	=50-
1D	.	.	.	.	1d	-ra	.	1d	-ra	.
2BB/	.	.	.	.	2b\	.	.	2dd\	Lau-	.
*custos:C	*	*	*	*	*	*	*	*	*	*
!LO:LB:g=original	!	!	!LO:N:vis=1	!	!	!	!	!	!	!
1C	.	.	1.r	.	(4a\	Lau-	.	(4cc\	-da-	.
.	.	.	.	.	4g\)	.	.	4bny\)	.	.
.	.	.	.	.	(4a\	-da-	.	(4cc\	.	.
.	.	.	.	.	4g\)	.	.	4b\)	.	.
2D\	4	.	.	.	2f#X/	.	.	2a\	.	.
.	3	.	.	.	.	.	.	.	.	.
*	*	*	*	*	*	*	*	*custos:g	*	*
!	!	!	!	!	!	!	!	!LO:LB:g=original	!	!
=51-	=51-	=51-	=51-	=51-	=51-	=51-	=51-	=51-	=51-	=51-
1GG	.	.	2.G\	Sus-	1g	-te	.	1g	-te	.
.	.	.	4Fny\	-ci-	.	.	.	.	.	.
!LO:TX:b:t=Suſcitans	!	!	!	!	!	!	!	!	!	!
!LO:TX:t=P:problem:kreska pseudotaktowa	!	!	!	!	!	!	!	!	!	!
2C/	.	.	2E\	-tans	2r	.	.	2r	.	.
!	!	!	!	!	!LO:N:vis=1	!	!	!LO:N:vis=1	!	!
2FF/	.	.	2F\	a	1.r	.	.	1.r	.	.
!LO:TX:t=P:problem:kreska pseudotaktowa	!	!	!	!	!	!	!	!	!	!
1GG	.	.	2D/	ter-	.	.	.	.	.	.
.	.	.	2G\	-ra	.	.	.	.	.	.
=52-	=52-	=52-	=52-	=52-	=52-	=52-	=52-	=52-	=52-	=52-
1.C	.	.	2.E\	i-	2r	.	.	2r	.	.
.	.	.	.	.	2r	.	.	2r	.	.
.	.	.	4D/	-no-	.	.	.	.	.	.
*	*	*	*	*	*	*ij	*	*	*ij	*
.	.	.	2C/	-pem	2cc\	Lau-	.	2ee\	Lau-	.
1D	.	.	2r	.	4b\	-da-	.	4dd\	-da-	.
.	.	.	.	.	4a\	.	.	4cc\	.	.
.	.	.	2D/	et	4b\	.	.	4dd\	.	.
.	.	.	.	.	4a\	.	.	4cc\	.	.
!LO:TX:t=P:problem:kreska pseudotaktowa	!	!	!	!	!LO:TX:t=P:problem:# below	!	!	!	!	!
2E\	#	.	2E\	de	2g#X/	.	.	2b\	.	.
=53-	=53-	=53-	=53-	=53-	=53-	=53-	=53-	=53-	=53-	=53-
1AA	.	.	2.A\	ster-	1a	-te	.	1a	-te	.
*	*	*	*	*	*	*Xij	*	*	*Xij	*
.	.	.	4G\	-co-	.	.	.	.	.	.
2BB/	#	.	2F#X\	-re	2r	.	.	2r	.	.
!	!	!	!	!	!LO:N:vis=00	!	!	!LO:N:vis=1	!	!
1GG	.	.	(4E\	e-	00.r	.	.	1.r	.	.
.	.	.	4F#\)	.	.	.	.	.	.	.
.	.	.	(4G\	-ri-	.	.	.	.	.	.
.	.	.	4F#\)	.	.	.	.	.	.	.
!LO:TX:t=P:problem:kreska pseudotaktowa	!	!	!	!	!	!	!	!	!	!
2AA/	.	.	2E\	-ens	.	.	.	.	.	.
=54-	=54-	=54-	=54-	=54-	=54-	=54-	=54-	=54-	=54-	=54-
!LO:TX:b:t=Vt collocet	!	!	!	!	!	!	!	!	!	!
1D	.	.	2.D/	pau-	.	.	.	2r	.	.
.	.	.	.	.	.	.	.	2r	.	.
.	.	.	4D/	-pe-	.	.	.	.	.	.
2D\	.	.	2D/	-rem	.	.	.	2dd\	ut	.
!	!	!	!LO:N:vis=1	!	!	!	!	!	!	!
2E\	6	.	1.r	.	.	.	.	2.cc\	col-	.
!LO:TX:t=P:problem:kreska pseudotaktowa	!	!	!	!	!	!	!	!	!	!
!LO:TX:t=P:problem:# above	!	!	!	!	!	!	!	!	!	!
1F#	.	.	.	.	.	.	.	.	.	.
.	.	.	.	.	.	.	.	4cc\	-lo-	.
.	.	.	.	.	.	.	.	2cc\	-cet	.
=55-	=55-	=55-	=55-	=55-	=55-	=55-	=55-	=55-	=55-	=55-
1G	.	.	2r	.	.	.	.	1b	e-	.
.	.	.	2r	.	.	.	.	.	.	.
2GG/	.	.	2G\	Vt	.	.	.	2b\	-um	.
*	*	*	*custos:F	*	*	*	*	*	*	*
!	!	!	!LO:LB:g=original	!	!LO:N:vis=1	!	!	!LO:N:vis=1	!	!
2AA/	6	.	2.Fny\	col-	1.r	.	.	1.r	.	.
!LO:TX:t=P:problem:kreska pseudotaktowa	!	!	!	!	!	!	!	!	!	!
1BB-X	.	.	.	.	.	.	.	.	.	.
.	.	.	4F\	-lo-	.	.	.	.	.	.
.	.	.	2F\	-cet	.	.	.	.	.	.
*	*	*	*	*	*custos:cc	*	*	*	*	*
!	!	!	!	!	!LO:LB:g=original	!	!	!	!	!
=56-	=56-	=56-	=56-	=56-	=56-	=56-	=56-	=56-	=56-	=56-
1C	.	.	1E	e-	2r	.	.	2r	.	.
.	.	.	.	.	2r	.	.	2r	.	.
2C/	.	.	2E\	-um	2cc\	Vt	.	2ee\	ut	.
!	!	!	!LO:N:vis=0	!	!	!	!	!	!	!
1D	6	.	0.r	.	2.b\	col-	.	2.dd\	col-	.
.	.	.	.	.	4b\	-lo-	.	4dd\	-lo-	.
!LO:TX:t=P:problem:kreska pseudotaktowa	!	!	!	!	!	!	!	!	!	!
2E\	7	.	.	.	2b\	-cet	.	2dd\	-cet	.
=57-	=57-	=57-	=57-	=57-	=57-	=57-	=57-	=57-	=57-	=57-
2.F\	.	.	.	.	1a	e-	.	1cc	e-	.
4E\	.	.	.	.	.	.	.	.	.	.
2D/	7	.	.	.	2a\	-um	.	2cc\	-um	.
*custos:E	*	*	*	*	*	*	*	*	*	*
!LO:PB:g=original	!	!	!LO:N:vis=1	!	!	!	!	!	!	!
1E	5 4	.	1.r	.	1a	cum	.	1b	cum	.
!	!	!	!	!	!LO:SIC:v:o=2gny/	!	!	!	!	!
2E\	X 3 #	.	.	.	2g#/	prin-	.	2b\	prin-	.
*	*	*	*	*	*	*	*	*custos:a	*	*
!	!	!	!	!	!	!	!	!LO:LB:g=original	!	!
=58-	=58-	=58-	=58-	=58-	=58-	=58-	=58-	=58-	=58-	=58-
1AA	.	.	2r	.	2.a\	-ci-	.	2.a\	-ci-	.
.	.	.	2A\	cum	.	.	.	.	.	.
.	.	.	.	.	4a\	-pi-	.	4a\	-pi-	.
!LO:TX:t=P:problem:kreska pseudotaktowa	!	!	!	!	!	!	!	!	!	!
2AA/	7	.	2A\	prin-	2a\	-bus	.	2a\	-bus	.
!	!	!	!	!	!LO:N:vis=00	!	!	!LO:N:vis=00	!	!
1.E	.	.	2.G\	-ci-	00.r	.	.	00.r	.	.
.	.	.	4G\	-pi-	.	.	.	.	.	.
.	.	.	2G\	-bus	.	.	.	.	.	.
=59-	=59-	=59-	=59-	=59-	=59-	=59-	=59-	=59-	=59-	=59-
1F	.	.	2.F\	po-	.	.	.	.	.	.
.	.	.	4F\	-pu-	.	.	.	.	.	.
2FF/	7	.	2E\	-li	.	.	.	.	.	.
!LO:TX:t=P:problem:kreska pseudotaktowa	!	!	!	!	!	!	!	!	!	!
1.GG	.	.	1.D	su-	.	.	.	.	.	.
=60-	=60-	=60-	=60-	=60-	=60-	=60-	=60-	=60-	=60-	=60-
1C	.	.	1C	-i	.	.	.	.	.	.
2BBny/	.	.	2r	.	.	.	.	.	.	.
!	!	!	!	!	!LO:N:vis=00	!	!	!LO:N:vis=0	!	!
1AA	#	.	2.E\	po-	00.r	.	.	0.r	.	.
.	.	.	4E\	-pu-	.	.	.	.	.	.
!LO:TX:t=P:problem:kreska pseudotaktowa	!	!	!	!	!	!	!	!	!	!
2AA/	.	.	2F#X\	-li	.	.	.	.	.	.
=61-	=61-	=61-	=61-	=61-	=61-	=61-	=61-	=61-	=61-	=61-
2BB/	.	.	1G	su-	.	.	.	.	.	.
2C/	6	.	.	.	.	.	.	.	.	.
2D\	#	.	2F#X\	.	.	.	.	.	.	.
!LO:TX:t=P:problem:kreska pseudotaktowa	!	!	!	!	!	!	!	!LO:N:vis=1	!	!
1.GG	.	.	1G	-i	.	.	.	1.r	.	.
.	.	.	2r	.	.	.	.	.	.	.
=62-	=62-	=62-	=62-	=62-	=62-	=62-	=62-	=62-	=62-	=62-
!LO:TX:b:t=Qui habitare	!	!	!LO:N:vis=00	!	!	!	!	!	!	!
1G	.	.	00.r	.	.	.	.	2dd\	Qui	.
.	.	.	.	.	.	.	.	2dd\	ha-	.
2G\	.	.	.	.	.	.	.	2dd\	-bi-	.
!LO:TX:t=P:problem:# above	!	!	!	!	!	!	!	!	!	!
1F#	6	.	.	.	2dd\	Qui	.	1dd	-ta-	.
.	.	.	.	.	2dd\	ha-	.	.	.	.
!LO:TX:t=P:problem:kreska pseudotaktowa	!	!	!	!	!	!	!	!	!	!
2F#\	6 5	.	.	.	2dd\	-bi-	.	2cc\	-re	.
=63-	=63-	=63-	=63-	=63-	=63-	=63-	=63-	=63-	=63-	=63-
1G	.	.	.	.	1dd	-ta-	.	1b	fa-	.
!LO:TX:t=P:problem:# above	!	!	!	!	!	!	!	!	!	!
2F#X\	.	.	.	.	2cc\	-re	.	2a\	-cit	.
1G	.	.	.	.	1b	fa-	.	2.g/	ste-	.
.	.	.	.	.	.	.	.	4g/	-ri-	.
!LO:TX:t=P:problem:kreska pseudotaktowa	!	!	!	!	!	!	!	!	!	!
!LO:TX:t=P:problem:# above	!	!	!	!	!	!	!	!	!	!
2F#X\	.	.	.	.	2a\	-cit	.	2a\	-lem	.
=64-	=64-	=64-	=64-	=64-	=64-	=64-	=64-	=64-	=64-	=64-
!	!	!	!LO:N:vis=00	!	!	!	!	!	!	!
1G	.	.	00.r	.	2.g/	ste-	.	2.b\	ste-	.
!	!	!	!	!	!LO:SIC:v:o=4fny/	!	!	!	!	!
.	.	.	.	.	4f#/	-ri-	.	4a\	-ri-	.
2G\	.	.	.	.	2g/	-lem	.	2b\	-lem	.
2C/	6	.	.	.	2g/	in	.	2a\	in	.
!LO:TX:t=P:problem:kreska pseudotaktowa	!	!	!	!	!LO:SIC:v:o=1f	!	!	!	!	!
1D	.	.	.	.	1f#	do-	.	1a	do-	.
=65-	=65-	=65-	=65-	=65-	=65-	=65-	=65-	=65-	=65-	=65-
!	!	!	!	!	!LO:SIC:v:o=1f	!	!	!	!	!
2.D\	.	.	.	.	1f#	-mo	.	2a\	-mo	.
.	.	.	.	.	.	.	.	1dd	Ma-	.
4E\	7	.	.	.	.	.	.	.	.	.
!LO:SIC:v:o=2Fny\	!	!	!	!	!	!	!	!	!	!
2F#\	.	.	.	.	2r	.	.	.	.	.
*custos:G	*	*	*	*	*custos:dd	*	*	*	*	*
!LO:LB:g=original	!	!	!	!	!LO:LB:g=original	!	!	!	!	!
1G	.	.	.	.	2r	.	.	1b	-trem	.
.	.	.	.	.	1dd	Ma-	.	.	.	.
!LO:SIC:v:o=2F\	!	!	!	!	!	!	!	!	!	!
2F#\	6	.	.	.	.	.	.	2r	.	.
*	*	*	*custos:G	*	*	*	*	*	*	*
!	!	!	!LO:LB:g=original	!	!	!	!	!	!	!
=66-	=66-	=66-	=66-	=66-	=66-	=66-	=66-	=66-	=66-	=66-
!LO:TX:t=P:problem:kreska pseudotaktowa	!	!	!	!	!	!	!	!LO:N:vis=1	!	!
1.G	.	.	2r	.	1.b	-trem	.	1.r	.	.
!	!	!	!LO:N:vis=1	!	!	!	!	!	!	!
.	.	.	1G	Ma-	.	.	.	.	.	.
1C	.	.	2r	.	2r	.	.	2r	.	.
.	.	.	1E	-trem	2cc\	fi-	.	2ee\	fi-	.
2C/	9 7	.	.	.	2b\	-li-	.	2dd\	-li-	.
*	*	*	*	*	*	*	*	*custos:cc	*	*
!	!	!	!	!	!	!	!	!LO:LB:g=original	!	!
=67-	=67-	=67-	=67-	=67-	=67-	=67-	=67-	=67-	=67-	=67-
1G	.	.	2r	.	2a\	-o-	.	2.cc\	-o-	.
.	.	.	2G\	fi-	2a\	-rum	.	.	.	.
.	.	.	.	.	.	.	.	4b\	-rum	.
!LO:TX:t=P:problem:kreska pseudotaktowa	!	!	!	!	!	!	!	!	!	!
2E\	6	.	2E\	-li-	2a\	.	.	2cc\	lae-	.
2D/	.	.	2.D/	-o-	2b\	lae-	.	2dd\	-tan-	.
2D/	7	.	.	.	(2.a\	-tan-	.	2.cc\	-tem	.
.	.	.	4C/	.	.	.	.	.	.	.
2D/	7	.	2D/	.	.	.	.	.	.	.
.	.	.	.	.	4b\)	.	.	4dd\	lae-	.
=68-	=68-	=68-	=68-	=68-	=68-	=68-	=68-	=68-	=68-	=68-
!LO:TX:t=P:problem:kreska pseudotaktowa	!	!	!	!	!	!	!	!	!	!
1.E	.	.	2E\	-rum	1g	-tem	.	2b\	-tan-	.
.	.	.	2.D/	lae-	.	.	.	2b\	-tem	.
*	*	*	*	*	*	*	*	*	*ij	*
.	.	.	.	.	2g/	.	.	2b\	lae-	.
.	.	.	4E\	-tan-	.	.	.	.	.	.
2C/	9	.	2C/	.	1.cc	Ma-	.	2ee\	-tan-	.
2C/	9	.	2C/	.	.	.	.	2.dd\	-tem	.
2C/	10	.	2C/	-tem	.	.	.	.	.	.
.	.	.	.	.	.	.	.	4ee\	lae-	.
=69-	=69-	=69-	=69-	=69-	=69-	=69-	=69-	=69-	=69-	=69-
!LO:TX:t=P:problem:kreska pseudotaktowa	!	!	!	!	!	!	!	!	!	!
1.F	.	.	2Fny\	.	1.a	-trem	.	1cc	-tan-	.
.	.	.	2.E\	lae-	.	.	.	.	.	.
.	.	.	.	.	.	.	.	2cc\	-tem	.
*	*	*	*	*	*	*	*	*	*Xij	*
.	.	.	4F\	-tan-	.	.	.	.	.	.
!LO:TX:b:t=Matrem	!	!	!	!	!	!	!	!LO:N:vis=1	!	!
1.D	.	.	1D	.	2r	.	.	1.ff	Ma-	.
.	.	.	.	.	2dd\	fi-	.	.	.	.
.	.	.	2D/	-tem	2cc\	-li-	.	.	.	.
=70-	=70-	=70-	=70-	=70-	=70-	=70-	=70-	=70-	=70-	=70-
!LO:TX:t=P:problem:kreska pseudotaktowa	!	!	!LO:N:vis=1	!	!	!	!	!	!	!
1.G	.	.	1.G	M(a)-	2.b\	-o-	.	1dd	-trem	.
.	.	.	.	.	4b\	-rum	.	.	.	.
.	.	.	.	.	2b\	lae-	.	2r	.	.
1E	.	.	1E	-(t)rem	2cc\	-tan-	.	2r	.	.
.	.	.	.	.	2.b\	-tem	.	2ee\	fi-	.
2E\	7	.	2r	.	.	.	.	2dd\	-li-	.
*	*	*	*	*	*	*ij	*	*	*	*
.	.	.	.	.	4cc\	lae-	.	.	.	.
*	*	*	*	*	*custos:a	*	*	*	*	*
!	!	!	!	!	!LO:LB:g=original	!	!	!	!	!
=71-	=71-	=71-	=71-	=71-	=71-	=71-	=71-	=71-	=71-	=71-
1F	.	.	2r	.	2a\	-tan-	.	2cc\	-o-	.
.	.	.	2F\	fi-	2a\	-tem	.	2cc\	-rum	.
!LO:TX:t=P:problem:kreska pseudotaktowa	!	!	!	!	!	!	!	!	!	!
2E\	6	.	2E\	-li-	2a\	lae-	.	2cc\	lae-	.
2D/	.	.	2.D/	-o-	2dd\	-tan-	.	2ff\	-tan-	.
2D/	.	.	.	.	2.cc\	-tem	.	2.ee\	-tem	.
.	.	.	4C/	.	.	.	.	.	.	.
2D/	.	.	2D/	-rum.	.	.	.	.	.	.
.	.	.	.	.	4dd\	lae-	.	4ff\	lae-	.
*	*	*	*custos:G	*	*	*	*	*	*	*
!	!	!	!LO:LB:g=original	!	!	!	!	!	!	!
=72-	=72-	=72-	=72-	=72-	=72-	=72-	=72-	=72-	=72-	=72-
2G\	.	.	2.G\	lae-	2b\	-tan-	.	2dd\	-tan-	.
2F\	6	.	.	.	2a\	-tem	.	2dd\	-tem	.
.	.	.	4F\	-tan-	.	.	.	.	.	.
*	*	*	*	*	*	*	*	*	*ij	*
!LO:TX:t=P:problem:kreska pseudotaktowa	!	!	!	!	!	!	!	!	!	!
2G\	.	.	2G\	-tem	2g/	lae-	.	2b\	lae-	.
*	*	*	*	*ij	*	*	*	*custos:a	*	*
!	!	!	!	!	!	!	!	!LO:LB:g=original	!	!
1.D	.	.	2.D/	lae-	2.g/	-tan-	.	2.a\	-tan-	.
.	.	.	4C/	-tan-	4a\	-tem	.	4b\	-tem	.
!	!	!	!	!	!LO:TX:t=P:problem:# below	!	!	!	!	!
.	.	.	2D/	-tem	2f#X/	lae-	.	2a\	lae-	.
*	*	*	*	*Xij	*	*	*	*	*	*
=73-	=73-	=73-	=73-	=73-	=73-	=73-	=73-	=73-	=73-	=73-
!LO:TX:t=P:problem:kreska pseudotaktowa	!	!	!	!	!	!	!	!	!	!
1.GG	.	.	1G	m(at)-	1g	-tan-	.	1g	-tan-	.
.	.	.	2G\	-rem	2g/	-tem	.	2g/	-tem	.
*	*	*	*	*	*	*Xij	*	*	*Xij	*
!LO:N:vis=1	!	!	!LO:N:vis=00	!	!LO:N:vis=1	!	!	!LO:N:vis=1	!	!
1.r	.	.	00.r	.	1.r	.	.	1.r	.	.
=74-	=74-	=74-	=74-	=74-	=74-	=74-	=74-	=74-	=74-	=74-
!LO:TX:b:t=Laudate.	!	!LO:DY:b:t=Forte	!	!	!	!	!	!	!	!
2G\	.	f	.	.	2b\	Lau-	.	2dd\	Lau-	.
!	!	!	!	!	!	!	!	!	!	!LO:DY:b:t=F.
2G\	.	.	.	.	2b\	-da-	.	2dd\	-da-	f
!	!	!	!	!	!	!	!LO:DY:b:t=F.	!	!	!
2C/	.	.	.	.	2cc\	-te	f	2ee\	-te	.
*custos:G	*	*	*	*	*	*	*	*	*	*
!LO:LB:g=original	!	!	!	!	!	!	!	!	!	!
1G	.	.	.	.	2.b\	d(o)-	.	2.dd\	pu-	.
.	.	.	.	.	4a\	-(mi)-	.	4cc\	-e-	.
2G\	.	.	.	.	2g/	-n(u)m	.	2b\	-ri	.
=75-	=75-	=75-	=75-	=75-	=75-	=75-	=75-	=75-	=75-	=75-
!LO:TX:t=P:problem:kreska pseudotaktowa	!	!	!	!	!LO:N:vis=1	!	!	!LO:N:vis=1	!	!
!LO:N:vis=1	!	!	!	!	!	!	!	!	!	!
1.r	.	.	.	.	1.r	.	.	1.r	.	.
*	*	*	*	*	*	*ij	*	*	*	*
!	!	!	!LO:N:vis=00	!	!	!	!	!	!	!
2G\	.	.	00.r	.	2b\	Lau-	.	2dd\	Lau-	.
!	!	!LO:DY:b:t=P.	!	!	!	!	!LO:DY:b:t=P.	!	!	!LO:DY:b:t=P.
2G\	.	p	.	.	2b\	-da-	p	2dd\	-da-	p
2C/	.	.	.	.	2cc\	-te	.	2ee\	-te	.
=76-	=76-	=76-	=76-	=76-	=76-	=76-	=76-	=76-	=76-	=76-
1G	.	.	.	.	2.b\	d(o)-	.	2.dd\	D(o)-	.
.	.	.	.	.	4a\	-(mi)-	.	4cc\	-(mi)-	.
*	*	*	*	*	*custos:g	*	*	*	*	*
!LO:TX:t=P:problem:kreska pseudotaktowa	!	!	!	!	!LO:LB:g=original	!	!	!	!	!
2G\	.	.	.	.	4g/	-n(u)m	.	4b\	-n(u)m	.
*	*	*	*	*	*	*Xij	*	*	*	*
.	.	.	.	.	4b\	.	.	4dd\	Lau-	.
!	!	!LO:DY:b:t=F.	!	!	!	!	!	!	!	!
1C	.	f	.	.	4a\	Lau-	.	(4cc\	-da-	.
.	.	.	.	.	4g\	-da-	.	4b\)	.	.
!	!	!	!	!	!	!	!	!	!	!LO:DY:b:rj:t=F.
.	.	.	.	.	4a\	.	.	(4cc\	.	f
.	.	.	.	.	4g\	.	.	4b\)	.	.
!	!	!	!	!	!	!	!LO:DY:b:rj:t=F.	!	!	!
2D/	.	.	.	.	2f#X/	.	f	2a\	.	.
=77-	=77-	=77-	=77-	=77-	=77-	=77-	=77-	=77-	=77-	=77-
!	!	!	!	!	!	!	!LO:DY:b:rj:t=P.	!	!	!
1GG	.	.	.	.	1g	-te	p	1g	-te	.
*	*	*	*	*	*	*	*	*	*ij	*
!LO:TX:t=P:problem:kreska pseudotaktowa	!	!	!	!	!LO:TX:t=P:problem:fragment zapisany repetycją	!	!	!	!	!
2G\	.	.	.	.	4g/yy	Lau-	.	2dd\	Lau-	.
.	.	.	.	.	4b\yy	-da-	.	.	.	.
!	!	!	!LO:N:vis=0	!	!	!	!	!	!	!LO:DY:b:t=P.
1C	.	.	0.r	.	4a\yy	.	.	(4cc\	-da-	p
.	.	.	.	.	4g\yy	.	.	4b\)	.	.
.	.	.	.	.	4a\yy	.	.	(4cc\	.	.
.	.	.	.	.	4g\yy	.	.	4b\)	.	.
!	!	!LO:DY:b:t=P.	!	!	!	!	!LO:DY:b:rj:t=F.	!	!	!
2D/	.	p	.	.	2f#X/yy	.	fy	2a\	.	.
*	*	*	*	*	*	*	*	*custos:g	*	*
!	!	!	!	!	!	!	!	!LO:LB:g=original	!	!
=78-	=78-	=78-	=78-	=78-	=78-	=78-	=78-	=78-	=78-	=78-
!LO:TX:t=P:problem:kreska pseudotaktowa	!	!	!	!	!	!	!LO:DY:b:rj:t=P.	!	!	!
1.GG	.	.	.	.	1gyy	-te	py	1g	-te	.
*	*	*	*	*	*	*	*	*	*Xij	*
.	.	.	.	.	2r	.	.	2r	.	.
!LO:TX:b:t=Gloria	!	!	!	!	!	!	!	!	!	!
2.G\	.	.	2.G\	Glo-	2.b\	Glo-	.	2.dd\	Glo-	.
!	!	!	!	!	!	!	!	!	!	!LO:DY:b:rj:t=F.
4G\	.	.	4G\	-ri-	4b\	-ri-	.	4dd\	-ri-	f
2C/	.	.	2C/	-a	2cc\	-a	.	2ee\	-a	.
=79-	=79-	=79-	=79-	=79-	=79-	=79-	=79-	=79-	=79-	=79-
*	*	*	*	*ij	*	*ij	*	*	*ij	*
2.F\	.	.	2.F\	Glo-	2.a\	Glo-	.	2.cc\	Glo-	.
4D\	.	.	4D/	-ri-	4a\	-ri-	.	4cc\	-ri-	.
!LO:TX:t=P:problem:kreska pseudotaktowa	!	!	!	!	!LO:TX:t=P:problem:# below	!	!	!	!	!
2E\	#	.	2E\	-a	2g#X/	-a	.	2b\	-a	.
*	*	*	*	*Xij	*	*Xij	*	*	*Xij	*
1AA	.	.	1AA	Pa-	1a	P(at)-	.	1a	Pa-	.
!LO:TX:b:t=Laudate.	!	!	!	!	!	!	!	!	!	!
2AA/	.	.	2AA/	-tri	2a\	-ri	.	2a\	-tri	.
=80-	=80-	=80-	=80-	=80-	=80-	=80-	=80-	=80-	=80-	=80-
!	!	!	!LO:N:vis=00	!	!	!	!	!	!	!
2C/	.	.	00.r	.	2cc\	Lau-	.	2ee\	Lau-	.
!LO:TX:t=P:problem:kreska pseudotaktowa	!	!	!	!	!	!	!	!	!	!
1D	8	.	.	.	2b\	-da-	.	2dd\	-da-	.
.	7	.	.	.	2a\	-te	.	2cc\	-te	.
!	!	!	!	!	!LO:SIC:v:o=2.gny/	!	!	!	!	!
1E	#	.	.	.	2.g#/	pu-	.	2.b\	pu-	.
!	!	!	!	!	!LO:SIC:v:o=4g/	!	!	!	!	!
.	.	.	.	.	4g#/	-e-	.	4b\	-e-	.
!	!	!	!	!	!	!	!LO:DY:b:rj:t=F.	!	!	!
2AA/	.	.	.	.	4a\	-ri	f	4a\	-ri	.
.	.	.	.	.	4cc\	.	.	4ee\	Lau-	.
=81-	=81-	=81-	=81-	=81-	=81-	=81-	=81-	=81-	=81-	=81-
1D	.	.	.	.	(4b\	Lau-	.	4dd\	-da-	.
.	.	.	.	.	4a\)	.	.	4cc\	.	.
.	.	.	.	.	(4b\	-da-	.	4dd\	.	.
.	.	.	.	.	4a\)	.	.	4cc\	.	.
!LO:TX:t=P:problem:kreska pseudotaktowa	!	!	!	!	!	!	!	!	!	!
2E\	.	.	.	.	2g#X/	.	.	2b\	.	.
1AA	.	.	.	.	1a	-te	.	1a	-te	.
2r	.	.	.	.	2r	.	.	2r	.	.
*	*	*	*	*	*custos:cc	*	*	*	*	*
!	!	!	!	!	!LO:LB:g=original	!	!	!	!	!
=82-	=82-	=82-	=82-	=82-	=82-	=82-	=82-	=82-	=82-	=82-
!LO:TX:b:t=Gloria	!	!	!	!	!	!	!	!	!	!
2.A\	.	.	2.A\	Glo-	2.cc\	Glo-	.	2.ee\	Glo-	.
4F\	.	.	4F\	-ri-	4cc\	-ri-	.	4ee\	-ri-	.
2G\	.	.	2G\	-a	2b\	-a	.	2dd\	-a	.
*	*	*	*	*	*	*	*	*custos:cc	*	*
!	!	!	!	!	!	!	!	!LO:LB:g=original	!	!
2.C/	.	.	2.C/	Fi-	2.cc\	fi-	.	2.cc\	Fi-	.
4C/	.	.	4C/	-li-	4cc\	-li-	.	4cc\	-li-	.
2C/	.	.	2C/	-o	2cc\	-o	.	2cc\	-o	.
*custos:G	*	*	*	*	*	*	*	*	*	*
!LO:LB:g=original	!	!	!	!	!	!	!	!	!	!
=83-	=83-	=83-	=83-	=83-	=83-	=83-	=83-	=83-	=83-	=83-
!LO:N:vis=1	!	!	!LO:N:vis=00	!	!LO:N:vis=1	!	!	!LO:N:vis=1	!	!
1.r	.	.	00.r	.	1.r	.	.	1.r	.	.
!LO:TX:b:t=Laudate.	!	!	!	!	!	!	!	!	!	!
1G	.	.	.	.	2b\	Lau-	.	2dd\	Lau-	.
.	.	.	.	.	2b\	-da-	.	2dd\	-da-	.
!	!	!	!	!	!	!	!	!	!	!LO:DY:b:t=For.
2C/	.	.	.	.	2cc\	-te	.	2ee\	-te	f
=84-	=84-	=84-	=84-	=84-	=84-	=84-	=84-	=84-	=84-	=84-
!LO:TX:t=P:problem:kreska pseudotaktowa	!	!	!	!	!	!	!	!	!	!
1.G	.	.	.	.	2.b\	pu-	.	2.dd\	pu-	.
.	.	.	.	.	4a\	-e-	.	4cc\	-e-	.
.	.	.	.	.	2gny/	-ri	.	2b\	-ri	.
*	*	*	*	*	*	*	*	*	*ij	*
2C/	.	.	.	.	2cc\	lau-	.	2ee\	Lau-	.
1D	.	.	.	.	2b\	-da-	.	2dd\	-da-	.
.	.	.	.	.	2a\	-te	.	2cc\	-te	.
=85-	=85-	=85-	=85-	=85-	=85-	=85-	=85-	=85-	=85-	=85-
!	!	!	!LO:N:vis=0	!	!LO:SIC:v:o=2.g/	!	!	!	!	!
1E	#	.	0.r	.	2.g#/	do-	.	2.b\	pu-	.
!	!	!	!	!	!LO:SIC:v:o=4g/	!	!	!	!	!
.	.	.	.	.	4g#/	-(mi)-	.	4b\	-e-	.
!LO:TX:t=P:problem:kreska pseudotaktowa	!	!	!	!	!	!	!	!	!	!
2AA/	.	.	.	.	4a\	-n(u)m	.	4a\	-ri	.
*	*	*	*	*	*	*	*	*	*Xij	*
.	.	.	.	.	4cc\	.	.	4ee\	Lau-	.
1D	.	.	.	.	(4b\	lau-	.	(4dd\	-da-	.
.	.	.	.	.	4a\)	.	.	4cc\)	.	.
.	.	.	.	.	(4b\	-da-	.	(4dd\	.	.
.	.	.	.	.	4a\)	.	.	4cc\)	.	.
2E\	#	.	.	.	2g#X/	-te	.	2b\	.	.
=86-	=86-	=86-	=86-	=86-	=86-	=86-	=86-	=86-	=86-	=86-
!LO:TX:t=P:problem:kreska pseudotaktowa	!	!	!LO:N:vis=1	!	!	!	!	!	!	!
1.AA	.	.	1.r	.	1a	.	.	1a	-te	.
.	.	.	.	.	2r	.	.	2r	.	.
*	*	*	*custos:A	*	*	*	*	*	*	*
!	!	!	!LO:LB:g=original	!	!	!	!	!	!	!
1A	#	.	2.A\	Glo-	2.cc#X\	Glo-	.	2.ee\	Glo-	.
.	.	.	4A\	-ri-	4cc#\	-ri-	.	4ee\	-ri-	.
2D\	#	.	2F#X\	-a	2dd\	-a	.	2dd\	-a	.
*	*	*	*	*	*custos:b	*	*	*custos:dd	*	*
!	!	!	!	!	!LO:LB:g=original	!	!	!LO:PB:g=original	!	!
=87-	=87-	=87-	=87-	=87-	=87-	=87-	=87-	=87-	=87-	=87-
1G	.	.	2.G\	Pa-	2.b\	Pa-	.	2.dd\	Pa-	.
.	.	.	4G\	-tri	4b\	-tri	.	4dd\	-tri	.
!LO:TX:t=P:problem:kreska pseudotaktowa	!	!	!	!	!	!	!	!	!	!
2E\	6	.	2E\	et	2ccny\	et	.	2cc\	et	.
1F	.	.	2.Fny\	Fi-	2.a\	fi-	.	2.cc\	Fi-	.
.	.	.	4F\	-li-	4a\	-li-	.	4b\	-li-	.
2D\	.	.	2D/	-o	2b\	-o	.	2b\	-o	.
=88-	=88-	=88-	=88-	=88-	=88-	=88-	=88-	=88-	=88-	=88-
1E	.	.	1E	Et	1gny	et	.	1b	et	.
!LO:TX:t=P:problem:kreska pseudotaktowa	!	!	!	!	!	!	!	!	!	!
2C/	.	.	2E\	spi-	2a\	spi-	.	2a\	spi-	.
1D	.	.	2D/	-ri-	2.f#X/	-ri-	.	2.a\	-ri-	.
.	.	.	2D/	-tu-	.	.	.	.	.	.
.	.	.	.	.	4e/	-tu-	.	4a\	-tu-	.
2D\	#	.	2D/	-i	2f#X/	-i	.	2a\	-i	.
=89-	=89-	=89-	=89-	=89-	=89-	=89-	=89-	=89-	=89-	=89-
!LO:TX:t=P:problem:kreska pseudotaktowa	!	!	!	!	!	!	!	!	!	!
1.GG	.	.	1G	san-	1g	san-	.	1g	san-	.
.	.	.	2G\	-cto	2g/	-cto	.	2g/	-cto	.
!LO:TX:b:t=Sit Sit nom(en)	!	!	!	!	!	!	!	!	!	!
1.GG	.	.	1G	Sit	1b	Sit	.	1dd	Sit	.
.	.	.	2r	.	2r	.	.	2r	.	.
=90-	=90-	=90-	=90-	=90-	=90-	=90-	=90-	=90-	=90-	=90-
2G\	.	.	2G\	Sit	2b\	Sit	.	2dd\	Sit	.
2G\	.	.	2G\	no-	2b\	no-	.	2dd\	no-	.
2E\	6	.	2E\	-men	2cc\	-men	.	2ee\	-men	.
2F\	.	.	2F\	d(o)-	2a\	d(o)-	.	2cc\	D(o)-	.
4F\	.	.	4F\	-(mi)-	4a\	-(mi)-	.	4cc\	-(mi)-	.
4F\	.	.	4F\	-ni	4a\	-ni	.	4cc\	-ni	.
2F\	.	.	2F\	be-	2a\	be-	.	2cc\	be-	.
=91-	=91-	=91-	=91-	=91-	=91-	=91-	=91-	=91-	=91-	=91-
2D\	6	.	2D\	-ne-	2a\	-ne-	.	2b\	-ne-	.
! 	!	!	!	!	!	!	!	!	!	!
1E	4	.	1E	-di-	2a\	-di-	.	1b	-di-	.
!	!	!	!	!	!LO:TX:t=P:problem:# below	!	!	!	!	!
.	3 #	.	.	.	2g#X/	-ctum	.	.	.	.
*custos:AA	*	*	*	*	*	*	*	*	*	*
!LO:LB:g=original	!	!	!LO:N:vis=1	!	!	!	!	!	!	!
1AA	.	.	1.A	-ctum.	1a	Lau-	.	1a	-ctu(m)	.
2AA/	.	.	.	.	2cc\	.	.	2ee\	Lau-	.
*	*	*	*	*	*custos:b	*	*	*custos:dd	*	*
!	!	!	!	!	!LO:LB:g=original	!	!	!LO:LB:g=original	!	!
=92-	=92-	=92-	=92-	=92-	=92-	=92-	=92-	=92-	=92-	=92-
!	!	!	!LO:N:vis=0	!	!	!	!	!	!	!
1D	.	.	0.r	.	4b\	.	.	(4dd\	-da-	.
.	.	.	.	.	4a\	-da-	.	4cc\)	.	.
.	.	.	.	.	4b\	.	.	(4dd\	.	.
.	.	.	.	.	4a\	.	.	4cc\)	.	.
!LO:TX:t=P:problem:kreska pseudotaktowa	!	!	!	!	!LO:TX:t=P:problem:# below	!	!	!	!	!
2E\	#	.	.	.	2g#X/	.	.	2b\	.	.
2A\	.	.	.	.	2a\	-te	.	2a\	-te	.
2A\	.	.	.	.	2a\	be-	.	2cc\	be-	.
2G\	.	.	.	.	2b\	-ne-	.	2dd\	-ne-	.
*	*	*	*custos:E	*	*	*	*	*	*	*
!	!	!	!LO:PB:g=original	!	!	!	!	!	!	!
=93-	=93-	=93-	=93-	=93-	=93-	=93-	=93-	=93-	=93-	=93-
2C/	.	.	2r	.	1.cc	-di-	.	1.ee	-di-	.
2E\	.	.	2E\	be-	.	.	.	.	.	.
!LO:TX:t=P:problem:kreska pseudotaktowa	!	!LO:SIC:t=7 5	!	!	!	!	!	!	!	!
2F\	2 5	.	2F\	-ne-	.	.	.	.	.	.
1G	.	.	1.G	-di-	2b\	-ctum	.	2dd\	-ctum	.
*	*	*	*	*	*	*ij	*	*	*	*
.	.	.	.	.	2b\	be-	.	2dd\	be-	.
2G\	6 4	.	.	.	2cc\	-ne-	.	2ee\	-ne-	.
=94-	=94-	=94-	=94-	=94-	=94-	=94-	=94-	=94-	=94-	=94-
1F	6	.	1.F	-ctum	1dd	-di-	.	1ff	-di-	.
!LO:TX:t=P:problem:kreska pseudotaktowa	!	!LO:SIC:t=7	!	!	!	!	!	!	!	!
2F\	2	.	.	.	2cc\	-ctum	.	2ee\	-ctum	.
*	*	*	*	*	*	*Xij	*	*	*	*
1G	.	.	1G	No-	1b	no-	.	1dd	No-	.
2G\	.	.	2G\	-men	2b\	-men	.	2dd\	-men	.
=95-	=95-	=95-	=95-	=95-	=95-	=95-	=95-	=95-	=95-	=95-
2r	.	.	2r	.	2r	.	.	2r	.	.
2E\	.	.	2E\	no-	2cc\	No-	.	2ee\	No-	.
!LO:TX:t=P:problem:kreska pseudotaktowa	!	!	!	!	!	!	!	!	!	!
2E\	.	.	2E\	-men	2cc\	-men	.	2ee\	men	.
2.G\	.	.	2G\	do-	2b\	d(o)-	.	2dd\	d(o)-	.
.	.	.	4G\	-mi-	4b\	-(mi)-	.	4dd\	-(mi)-	.
4E\	6	.	4E\	-ni	4cc\	-ni	.	4cc\	-ni	.
2F\	.	.	2F\	be-	2a\	be-	.	2cc\	be-	.
=96-	=96-	=96-	=96-	=96-	=96-	=96-	=96-	=96-	=96-	=96-
2D\	.	.	2D/	-ne-	2a\	-ne-	.	2b\	-ne-	.
1E	.	.	1E	-di-	2a\	-di-	.	1b	-di-	.
!	!	!	!	!	!LO:TX:t=P:problem:# below	!	!	!	!	!
.	.	.	.	.	2g#X/	.	.	.	.	.
1.A	.	.	1AA	-ctum	1a	-ctum	.	1a	-ctum	.
.	.	.	2r	.	2r	.	.	2r	.	.
*	*	*	*	*	*custos:dd	*	*	*custos:ff	*	*
!	!	!	!	!	!LO:PB:g=original	!	!	!LO:LB:g=original	!	!
=97||-	=97||-	=97||-	=97||-	=97||-	=97||-	=97||-	=97||-	=97||-	=97||-	=97||-
*M2/1	*	*	*M2/1	*	*M2/1	*	*	*M2/1	*	*
*met(C)	*	*	*met(C)	*	*met(C)	*	*	*met(C)	*	*
!LO:TX:b:t=Ex Syon	!	!	!	!	!	!	!	!	!	!
2FF/	.	.	2r	.	2r	.	.	2r	.	.
2FF/	.	.	4FF/	ex	16dd\	Ex	.	16ff\	ex	.
.	.	.	.	.	8.cc\	.	.	8.ee\	.	.
.	.	.	4FF/	hoc	16dd\	hoc	.	16ff\	hoc	.
.	.	.	.	.	8.cc\	.	.	8.ee\	.	.
!	!	!	!	!	!LO:N:vis=1.	!	!	!	!	!
1GG	.	.	1GG	nunc	1b	nunc	.	1dd	nunc	.
=98||-	=98||-	=98||-	=98||-	=98||-	=98||-	=98||-	=98||-	=98||-	=98||-	=98||-
*M3/1	*	*	*M3/1	*	*M3/1	*	*	*M3/1	*	*
*met(3)	*	*	*met(3)	*	*met(3)	*	*	*met(3)	*	*
!LO:TX:b:t=Laudate	!	!	!LO:N:vis=0	!	!	!	!	!	!	!
1G	.	.	0.r	.	2b\	Lau-	.	2dd\	Lau-	.
.	.	.	.	.	2b\	-da-	.	2dd\	-da-	.
2C/	.	.	.	.	2cc\	-te	.	2ee\	-te	.
1G	.	.	.	.	2.b\	pu-	.	2.dd\	pu-	.
.	.	.	.	.	4a\	-e-	.	4cc\	-e-	.
2G\	.	.	.	.	2gny/	-ri	.	2b\	-ri	.
=99-	=99-	=99-	=99-	=99-	=99-	=99-	=99-	=99-	=99-	=99-
!	!	!	!	!	!	!	!LO:DY:b:t=P.	!	!	!LO:DY:b:t=P.
1.GG	.	.	1.G	Nunc	1b	Nunc	p	1dd	Nunc	p
.	.	.	.	.	2r	.	.	2r	.	.
!	!	!LO:DY:b:t=Pian.	!LO:N:vis=00	!	!	!	!	!	!	!
2GG/	.	p	00.r	.	2r	.	.	2r	.	.
2AA/	.	.	.	.	2r	.	.	2r	.	.
2BB/	.	.	.	.	2b\	Lau-	.	2dd\	Lau-	.
*custos:C	*	*	*	*	*	*	*	*	*	*
!LO:LB:g=original	!	!	!	!	!	!	!	!	!	!
=100-	=100-	=100-	=100-	=100-	=100-	=100-	=100-	=100-	=100-	=100-
!	!	!	!LO:N:vis=00	!	!	!	!	!	!	!
1C	.	.	.	.	(4a\	-da-	.	4cc\	-da-	.
!	!	!	!	!	!	!	!LO:DY:b:t=F.	!	!	!
.	.	.	.	.	4g\)	.	f	4b\	.	.
!	!	!	!	!	!	!	!	!	!	!LO:DY:b:t=F.
.	.	.	.	.	(4a\	.	.	4cc\	.	f
.	.	.	.	.	4g\)	.	.	4b\	.	.
2D\	#	.	.	.	2f#X/	.	.	2a\	.	.
1G	.	.	.	.	1g	-te	.	1g	-te	.
*	*	*	*	*	*	*ij	*	*	*ij	*
!LO:TX:t=P:problem:kreska pseudotaktowa	!	!	!	!	!	!	!	!	!	!
2C/	.	.	.	.	2cc\	Lau-	.	2ee\	Lau-	.
=101-	=101-	=101-	=101-	=101-	=101-	=101-	=101-	=101-	=101-	=101-
!	!	!	!	!	!	!	!LO:DY:b:t=P.	!	!	!
1D	.	.	.	.	(4b\	-da-	p	4dd\	-da-	.
!	!	!	!	!	!	!	!	!	!	!LO:DY:b:t=P.
.	.	.	.	.	4a\)	.	.	4cc\	.	p
.	.	.	.	.	(4b\	.	.	4dd\	.	.
.	.	.	.	.	4a\)	.	.	4cc\	.	.
!	!	!	!	!	!LO:TX:t=P:problem:# below	!	!	!	!	!
2E\	#	.	.	.	2g#X/	.	.	2b\	.	.
*	*	*	*custos:A	*	*custos:a	*	*	*custos:a	*	*
!LO:TX:t=P:problem:kreska pseudotaktowa	!	!	!LO:LB:g=original	!	!LO:LB:g=original	!	!	!LO:LB:g=original	!	!
1.AA	.	.	1A	Nunc	1a	-te	.	1a	-te	.
*	*	*	*	*	*	*Xij	*	*	*Xij	*
.	.	.	2r	.	2r	.	.	2r	.	.
=102-	=102-	=102-	=102-	=102-	=102-	=102-	=102-	=102-	=102-	=102-
!	!	!LO:DY:b:t=P.	!LO:N:vis=00	!	!	!	!	!	!	!
1AA	#	p	00.r	.	1cc#X	Nunc	.	1ee	Nunc	.
2r	.	.	.	.	2r	.	.	2r	.	.
1A	#	.	.	.	2cc#X\	Lau-	.	2ee\	Lau-	.
.	.	.	.	.	2cc#\	-da-	.	2ee\	-da-	.
!LO:TX:t=P:problem:kreska pseudotaktowa	!	!LO:DY:b:t=F.	!	!	!	!	!LO:DY:b:rj:t=F.	!LO:SIC:v:o=2ff\	!	!LO:DY:b:t=Forte.
2D\	.	f	.	.	2dd\	-te	f	2ff#\	-te	f
=103-	=103-	=103-	=103-	=103-	=103-	=103-	=103-	=103-	=103-	=103-
1.A	#	.	.	.	2.cc#X\	pu-	.	2.ee\	pu-	.
.	.	.	.	.	4b\	-e-	.	4dd\	-e-	.
.	.	.	.	.	2a\	-ri	.	2cc#X\	-ri	.
*	*	*	*	*	*	*ij	*	*	*ij	*
1A	#	.	.	.	2cc#X\	Lau-	.	2ee\	Lau-	.
!	!	!	!	!	!	!	!LO:DY:b:t=P.	!	!	!
.	.	.	.	.	2cc#\	-da-	p	2ee\	-da-	.
!	!	!LO:DY:b:t=P.	!	!	!	!	!	!LO:SIC:v:o=2ff\	!	!LO:DY:b:t=P.
2D\	#	p	.	.	2dd\	-te	.	2ff#\	-te	p
=104-	=104-	=104-	=104-	=104-	=104-	=104-	=104-	=104-	=104-	=104-
!	!	!	!LO:N:vis=00	!	!	!	!	!	!	!
1.A	#	.	00.r	.	2.cc#X\	pu-	.	2.ee\	pu-	.
.	.	.	.	.	4b\	-e-	.	4dd\	-e-	.
.	.	.	.	.	2a\	-ri	.	2cc#X\	-ri	.
!	!	!LO:DY:b:t=F.	!	!	!	!	!	!	!	!
1A	.	f	.	.	2cc#X\	Lau-	.	2ee\	Lau-	.
.	.	.	.	.	2cc#\	-da-	.	2ee\	-da-	.
!LO:TX:t=P:problem:kreska pseudotaktowa	!	!	!	!	!	!	!LO:DY:b:t=F.	!LO:SIC:v:o=2ff\	!	!
2D\	#	.	.	.	2dd\	-te	f	2ff#\	-te	.
=105-	=105-	=105-	=105-	=105-	=105-	=105-	=105-	=105-	=105-	=105-
!	!	!LO:DY:b:t=P.	!	!	!	!	!	!	!	!
1A	.	p	.	.	2.cc#X\	pu-	.	2.ee\	pu-	.
.	.	.	.	.	4b\	-e-	.	4dd\	-e-	.
!	!	!	!	!	!	!	!	!LO:SIC:v:o=4ccny\	!	!
2A\	.	.	.	.	4a\	-ri	.	4cc#\	-ri	.
*	*	*	*	*	*	*Xij	*	*	*Xij	*
!	!	!	!	!	!	!	!	!	!	!LO:DY:b:t=F.
.	.	.	.	.	4cc#\	Lau-	.	4ee\	Lau-	f
1D	.	.	.	.	4b\	-da-	.	4dd\	-da-	.
!	!	!	!	!	!	!	!	!LO:SIC:v:o=4cc\	!	!
.	.	.	.	.	4a\	.	.	4cc#\	.	.
.	.	.	.	.	4b\	.	.	4dd\	.	.
!	!	!	!	!	!	!	!	!LO:SIC:v:o=4cc\	!	!
.	.	.	.	.	4a\	.	.	4cc#\	.	.
!LO:TX:t=P:problem:kreska pseudotaktowa	!	!	!	!	!LO:TX:t=P:problem:# below	!	!	!	!	!
2E\	#	.	.	.	2g#X/	.	.	2b\	.	.
*	*	*	*	*	*custos:a	*	*	*custos:a	*	*
!	!	!	!	!	!LO:LB:g=original	!	!	!LO:LB:g=original	!	!
=106-	=106-	=106-	=106-	=106-	=106-	=106-	=106-	=106-	=106-	=106-
!	!	!	!LO:N:vis=00	!	!	!	!	!	!	!
1AA	.	.	00.r	.	1a	-te	.	1a	-te	.
*	*	*	*	*	*	*	*	*	*ij	*
2A\	.	.	.	.	2a\	.	.	2cc\	Lau-	.
!LO:TX:t=P:problem:kreska pseudotaktowa	!	!	!	!	!	!	!	!	!	!LO:DY:b:t=P.
1.G	.	.	.	.	4b\	Lau-	.	4dd\	-da-	p
.	.	.	.	.	4a\	-da-	.	4cc\	.	.
.	.	.	.	.	4b\	.	.	4dd\	.	.
.	.	.	.	.	4ccny\	.	.	4ee\	.	.
.	.	.	.	.	2b\	.	.	2dd\	.	.
=107-	=107-	=107-	=107-	=107-	=107-	=107-	=107-	=107-	=107-	=107-
2E\	6	.	.	.	2cc\	te	.	2ee\	-te	.
*	*	*	*	*	*	*	*	*	*Xij	*
!	!	!LO:DY:b:t=For.	!	!	!	!	!	!	!	!
2D/	.	f	.	.	2dd\	No-	.	2ff\	No-	.
!	!	!	!	!	!	!	!	!	!	!LO:DY:b:t=F.
2E\	6	.	.	.	2cc\	-men	.	2ee\	-men	f
1G	.	.	.	.	2.b\	d(o)-	.	2.dd\	d(o)-	.
.	.	.	.	.	4b\	-(mi)-	.	4dd\	-(mi)-	.
!LO:TX:t=P:problem:kreska pseudotaktowa	!	!	!	!	!	!	!	!	!	!
2C/	.	.	.	.	2cc\	-ni	.	2cc\	-ni	.
=108-	=108-	=108-	=108-	=108-	=108-	=108-	=108-	=108-	=108-	=108-
!	!	!	!LO:N:vis=1	!	!	!	!	!	!	!
2r	.	.	1.r	.	2r	.	.	2r	.	.
*	*	*	*	*	*	*	*	*	*ij	*
!	!	!LO:DY:b:t=Pian	!	!	!	!	!	!	!	!
2D\	.	p	.	.	2dd\	No-	.	2ff\	No-	.
!	!	!	!	!	!	!	!LO:DY:b:t=P.	!	!	!LO:DY:b:t=P.
2E\	6	.	.	.	2cc\	-men	p	2ee\	-men	p
1G	.	.	2r	.	2.b\	d(o)-	.	2.dd\	d(o)-	.
.	.	.	2G\	Si-	.	.	.	.	.	.
.	.	.	.	.	4b\	-(mi)-	.	4dd\	-(mi)-	.
2C/	.	.	2E\	-cut	2cc\	-ni	.	2cc\	-ni	.
*custos:F	*	*	*	*	*	*	*	*	*Xij	*
!LO:LB:g=original	!	!	!	!	!	!	!	!	!	!
=109-	=109-	=109-	=109-	=109-	=109-	=109-	=109-	=109-	=109-	=109-
*^	*	*	*	*	*	*	*	*	*	*
!	!	!	!	!	!	!LO:N:vis=1	!	!	!LO:N:vis=0	!	!
2.A/	2.F\	.	.	2.A\	e-	0.r	.	.	0.r	.	.
4G/	4E\	.	.	4G\	-rat	.	.	.	.	.	.
2F/	2D\	.	.	2F\	in-	.	.	.	.	.	.
2BB/	2ryy	6	.	2G\	-prin-	.	.	.	.	.	.
2GG/	1ryy	6	.	2E\	-ci-	.	.	.	.	.	.
!LO:TX:t=P:problem:kreska pseudotaktowa	!	!	!	!	!	!	!	!	!	!	!
2AA/	.	.	.	2E\	-pi-	.	.	.	.	.	.
*v	*v	*	*	*	*	*	*	*	*	*	*
=110-	=110-	=110-	=110-	=110-	=110-	=110-	=110-	=110-	=110-	=110-
1D	#	.	1F#X	-o	2r	.	.	2r	.	.
.	.	.	.	.	2r	.	.	2r	.	.
2GG/	.	.	2G\	et	2b\	Lau-	.	2dd\	Lau-	.
1C	.	.	1C	nunc	(4a\	-da-	.	4cc\	-da-	.
.	.	.	.	.	4gny\)	.	.	4b\	.	.
!	!	!	!	!	!	!	!	!	!	!LO:DY:b:rj:t=F.
.	.	.	.	.	(4a\	.	.	4cc\	.	f
.	.	.	.	.	4g\)	.	.	4b\	.	.
!LO:TX:t=P:problem:kreska pseudotaktowa	!	!	!	!	!	!	!	!	!	!
2D\	#	.	2r	.	2f#X/	.	.	2a\	.	.
=111-	=111-	=111-	=111-	=111-	=111-	=111-	=111-	=111-	=111-	=111-
2.GG/	.	.	2r	.	1g	-te	.	1g	-te.	.
.	.	.	1G	nunc	.	.	.	.	.	.
4AA/	.	.	.	.	.	.	.	.	.	.
2BB/	.	.	.	.	2r	.	.	2r	.	.
*	*	*	*	*	*custos:cc	*	*	*	*	*
!	!	!	!	!	!LO:LB:g=original	!	!	!LO:N:vis=1	!	!
!	!	!	!	!	!LO:N:vis=1	!	!	!	!	!
2C/	.	.	2E\	et	1.r	.	.	1.r	.	.
2FF/	6	.	1D	Sem-	.	.	.	.	.	.
!LO:TX:t=P:problem:kreska pseudotaktowa	!	!	!	!	!	!	!	!	!	!
2GG/	.	.	.	.	.	.	.	.	.	.
*	*	*	*	*	*	*	*	*custos:ee	*	*
!	!	!	!	!	!	!	!	!LO:LB:g=original	!	!
=112-	=112-	=112-	=112-	=112-	=112-	=112-	=112-	=112-	=112-	=112-
!LO:TX:b:t=Laudate.	!	!	!	!	!	!	!	!	!	!
2C/	.	.	2C/	-p(er)	2cc\	Lau-	.	2ee\	Lau-	.
2D\	7 5	.	2D/	Et	2b\	-da-	.	2dd\	-da-	.
!	!	!	!	!	!	!	!LO:DY:b:t=F.	!	!	!
2D\	.	.	2D/	in	2a\	-te	f	2cc\	-te	.
1E	#	.	2.E\	Sae-	2.g#X/	d(o)-	.	2.b\	pu-	.
.	.	.	4E\	-cu-	4g#/	-(mi)-	.	4b\	-e-	.
!LO:TX:t=P:problem:kreska pseudotaktowa	!	!	!	!	!	!	!	!	!	!
2AA/	.	.	2A\	-la	4a\	-n(u)m	.	4a\	-ri	.
.	.	.	.	.	4cc\	.	.	4ee\	Lau-	.
*	*	*	*custos:E	*	*	*	*	*	*	*
!	!	!	!LO:LB:g=original	!	!	!	!	!	!	!
=113-	=113-	=113-	=113-	=113-	=113-	=113-	=113-	=113-	=113-	=113-
1D	.	.	2r	.	(4b\	Lau-	.	4dd\	-da-	.
.	.	.	.	.	4a\)	.	.	4cc\	.	.
.	.	.	2r	.	(4b\	-da-	.	4dd\	.	.
!	!	!	!	!	!	!	!	!	!	!LO:DY:b:t=F.
.	.	.	.	.	4a\)	.	.	4cc\	.	f
2E\	.	.	2E\	In	2g#X/	.	.	2b\	.	.
2.A\	.	.	2.A\	Sae-	1a	-te	.	1a	-te	.
4A\	.	.	4A\	-cu-	.	.	.	.	.	.
*	*	*	*	*	*	*ij	*	*	*ij	*
!LO:TX:t=P:problem:kreska pseudotaktowa	!	!	!	!	!	!	!	!	!	!
2G\	.	.	4G\	-la	2b\	Lau-	.	2dd\	Lau-	.
*	*	*	*	*ij	*	*	*	*	*	*
.	.	.	4G\	In	.	.	.	.	.	.
=114-	=114-	=114-	=114-	=114-	=114-	=114-	=114-	=114-	=114-	=114-
!	!	!	!	!	!	!	!LO:DY:b:rj:t=P.	!	!	!LO:DY:b:t=P.
1C	.	.	2.C/	Sae-	(4a\	-da-	p	4cc\	-da-	p
.	.	.	.	.	4gny\)	.	.	4b\	.	.
.	.	.	.	.	(4a\	.	.	4cc\	.	.
.	.	.	4C/	-cu-	4g\)	.	.	4b\	.	.
2D\	.	.	4D/	-la	2f#X/	.	.	2a\	.	.
.	.	.	4D/	In	.	.	.	.	.	.
2G\	.	.	2.G\	Sae-	1g	-te	.	1g	-te	.
*	*	*	*	*	*	*Xij	*	*	*Xij	*
2G\	.	.	.	.	.	.	.	.	.	.
.	.	.	4Fny\	-cu-	.	.	.	.	.	.
!LO:TX:t=P:problem:kreska pseudotaktowa	!	!	!	!	!	!	!	!	!	!
2C/	.	.	2E\	-la	2r	.	.	2r	.	.
*	*	*	*	*Xij	*	*	*	*	*	*
=115-	=115-	=115-	=115-	=115-	=115-	=115-	=115-	=115-	=115-	=115-
!	!	!	!	!	!LO:N:vis=1	!	!	!LO:N:vis=1	!	!
1D	.	.	2.F\	sae-	1.r	.	.	1.r	.	.
.	.	.	4A\	-cu-	.	.	.	.	.	.
2E\	#	.	2G#X\	-lo-	.	.	.	.	.	.
1AA	.	.	1A	-rum	2cc#X\	Lau-	.	2ee\	Lau-	.
!	!	!	!	!	!	!	!LO:DY:b:t=F.	!	!	!
.	.	.	.	.	2cc#\	-da-	f	2ee\	-da-	.
!	!	!	!	!	!	!	!	!LO:SIC:v:o=2ff\	!	!LO:DY:b:t=F.
2D/	.	.	2r	.	2dd\	-te	.	2ff#\	-te	f
=116-	=116-	=116-	=116-	=116-	=116-	=116-	=116-	=116-	=116-	=116-
!	!	!	!LO:N:vis=0	!	!LO:TX:t=P:problem:# above	!	!	!	!	!
1.AA	#	.	0.r	.	2.cc#X\	pu-	.	2.ee\	pu-	.
.	.	.	.	.	4b\	-e-	.	4dd\	-e-	.
.	.	.	.	.	2a\	-ri	.	2cc#X\	-ri	.
*custos:A	*	*	*	*	*custos:cc	*ij	*	*	*ij	*
!LO:LB:g=original	!	!	!	!	!LO:LB:g=original	!	!	!	!	!
1A	#	.	.	.	2cc#X\	Lau-	.	2ee\	Lau-	.
!	!	!	!	!	!	!	!	!	!	!LO:DY:b:t=P.
.	.	.	.	.	2cc#\	-da-	.	2ee\	-da-	p
!	!	!	!	!	!	!	!	!LO:SIC:v:o=2ff\	!	!
2D/	.	.	.	.	2dd\	-te	.	2ff#\	-te	.
*	*	*	*	*	*	*	*	*custos:ee	*	*
!	!	!	!	!	!	!	!	!LO:LB:g=original	!	!
=117-	=117-	=117-	=117-	=117-	=117-	=117-	=117-	=117-	=117-	=117-
!LO:TX:t=P:problem:kreska pseudotaktowa	!	!	!LO:N:vis=1	!	!	!	!	!	!	!
1.A	#	.	1.r	.	2.cc#y\	pu-	.	2.ee\	pu-	.
.	.	.	.	.	4b\	-e-	.	4dd\	-e-	.
.	.	.	.	.	4a\	-ri	.	4cc#X\	-ri	.
*	*	*	*	*	*	*Xij	*	*	*Xij	*
.	.	.	.	.	4cc#\	.	.	4ee\	Lau-	.
1D	.	.	4D/	A-	(4b\	Lau-	.	4dd\	-da-	.
.	.	.	4E\	.	4a\)	.	.	4cc#\	.	.
!	!	!	!	!	!	!	!	!	!	!LO:DY:b:t=F.
.	.	.	4F\	.	(4b\	-da-	.	4dd\	.	f
.	.	.	4D/	.	4a\)	.	.	4cc#\	.	.
2E\	#	.	2E\	-men	2g#X/	.	.	2b\	.	.
=118-	=118-	=118-	=118-	=118-	=118-	=118-	=118-	=118-	=118-	=118-
*	*	*	*	*ij	*	*	*	*	*	*
1F	.	.	4F\	A-	1a	-te	.	1a	-te	.
.	.	.	4Gny\	.	.	.	.	.	.	.
.	.	.	4A\	.	.	.	.	.	.	.
.	.	.	4F\	.	.	.	.	.	.	.
!LO:TX:t=P:problem:kreska pseudotaktowa	!	!	!	!	!	!	!	!	!	!
2G\	.	.	2G\	.	2r	.	.	2r	.	.
*	*	*	*custos:C	*	*	*	*	*	*	*
!	!	!	!LO:LB:g=original	!	!LO:N:vis=1	!	!	!	!	!
1C	.	.	1.C	-men	1.r	.	.	4ccny\	A-	.
*	*	*	*	*Xij	*	*	*	*	*	*
.	.	.	.	.	.	.	.	4dd\	.	.
.	.	.	.	.	.	.	.	4ee\	.	.
.	.	.	.	.	.	.	.	4cc\	.	.
2GG/	.	.	.	.	.	.	.	2dd\	.	.
=119-	=119-	=119-	=119-	=119-	=119-	=119-	=119-	=119-	=119-	=119-
1C	.	.	4C/	A-	4e/	A-	.	1ee	.	.
.	.	.	4D/	.	4fny/	.	.	.	.	.
.	.	.	4E\	.	4gny/	.	.	.	.	.
.	.	.	4C/	.	4e/	.	.	.	.	.
!LO:TX:t=P:problem:kreska pseudotaktowa	!	!	!	!	!	!	!	!	!	!
2D\	#	.	2D/	.	2f#X/	.	.	2a\	-men	.
*	*	*	*	*	*	*	*	*	*ij	*
1GG	.	.	1.G	-men	1.g	-men	.	4b\	A-	.
.	.	.	.	.	.	.	.	4cc\	.	.
.	.	.	.	.	.	.	.	4dd\	.	.
.	.	.	.	.	.	.	.	4b\	.	.
2AA/	#	.	.	.	.	.	.	2cc#X\	.	.
=120-	=120-	=120-	=120-	=120-	=120-	=120-	=120-	=120-	=120-	=120-
*	*	*	*	*ij	*	*ij	*	*	*	*
1D	.	.	4D/	A-	4f#X/	A-	.	1dd	.	.
.	.	.	4E\	.	4g/	.	.	.	.	.
.	.	.	4F\	.	4a\	.	.	.	.	.
!	!	!	!	!	!LO:TX:t=P:problem:# below	!	!	!	!	!
.	.	.	4D/	.	4f#X/	.	.	.	.	.
!	!	!	!	!	!LO:TX:t=P:problem:# below	!	!	!	!	!
2E\	#	.	2E\	-men	2g#X/	-men	.	2b\	-men	.
*	*	*	*	*	*custos:a	*	*	*	*	*
!	!	!	!	!	!LO:LB:g=original	!	!	!	!	!
1AA	.	.	1A	A-	4a\	A-	.	4ccny\	A-	.
.	.	.	.	.	4b\	.	.	4dd\	.	.
.	.	.	.	.	4ccny\	.	.	4ee\	.	.
.	.	.	.	.	4a\	.	.	4cc\	.	.
!LO:TX:t=P:problem:kreska pseudotaktowa	!	!	!	!	!	!	!	!	!	!
2GG/	.	.	2G\	-men	2b\	-men	.	2dd\	-men	.
*	*	*	*	*	*	*	*	*custos:ee	*Xij	*
!	!	!	!	!	!	!	!	!LO:LB:g=original	!	!
=121-	=121-	=121-	=121-	=121-	=121-	=121-	=121-	=121-	=121-	=121-
1C	.	.	4C/	A-	4e/	.	.	4ee\	A-	.
*	*	*	*	*	*	*Xij	*	*	*	*
.	.	.	4D/	.	4fny/	A-	.	4dd\	.	.
.	.	.	4E\	.	4gny/	.	.	4cc\	.	.
.	.	.	4C/	.	4e/	.	.	4b\	.	.
2D\	#	.	2D/	.	2f#X/	.	.	2a\	.	.
2GG/	.	.	2GG/	-men.	2g/	-men.	.	2g/	-men.	.
2r	.	.	2r	.	2r	.	.	2r	.	.
2r	.	.	2r	.	2r	.	.	2r	.	.
==	==	==	==	==	==	==	==	==	==	==
*-	*-	*-	*-	*-	*-	*-	*-	*-	*-	*-
!!!system-decoration: [(g1)]g2
!!!RDF**kern: > = above
!!!RDF**kern: < = below
!!!ENC: Andrzej Gręziak
!!!END: 2022-11-02
!!!ENC: Katarzyna Serwa
!!!END: 2022-12-10
